!!!!SEGMENT: pl-sa--243-a-vii-3_szczurowski-jacek--motetto-de-bmv-memento-rerum-conditor.krn
!!!cenid: 17xx:260a
!!!COM: Szczurowski, Jacek
!!!COM-rismID:
!!!CDT: 1716/08/15-~1733
!!!CNT: Polish
!!!OTL: Motetto de BMV Memento rerum conditor
!!!PDT:
!!!AGN: Sacred
!!!SMS-siglum: PL-SA
!!!SMS-shelfmark: 243/A VII 3
!!!SMS-shelfwork: W
!!!NIFC-rismSourceID: 1001035381
!!!NIFC-islandoraID:
!!!URL-pdf-islandora:
!!!URL-scan: https://bc.bdsandomierz.pl/dlibra/publication/1595/edition/1563/content @EN{Scan on Cyfrowa Biblioteka Diecezjalna w Sandomierzu} @PL{Skany w portalu Cyfrowa Biblioteka Diecezjalna w Sandomierzu}
!!!ONB-nifc:
!!!AIN: 1 alto 4 empty 1 tenor 2 violn 1 vox
!!!key:
**kern	**fba	**kern	**kern	**kern	**text	**kern	**text	**kern	**text	**kern	**text	**kern	**kern
*part9	*part9	*part8	*part7	*part6	*part6	*part5	*part5	*part4	*part4	*part3	*part3	*part2	*part1
*staff9	*	*staff8	*staff7	*staff6	*staff6	*staff5	*staff5	*staff4	*staff4	*staff3	*staff3	*staff2	*staff1
*Iempty	*	*Ivioln	*Ivioln	*Iempty	*	*Itenor	*	*Ialto	*	*Ivox	*	*Iempty	*Iempty
*I"Baſso Viola	*	*I"Violino 2 do	*I"Violino 1mo	*I"Baſso	*	*I"Tenore	*	*I"Alto	*	*I"Canto	*	*I"Valthorno 2do Ex D:	*I"Valthorno 1mo Ex D.
*	*	*I'vn 2	*I'vn I	*I'B	*	*I'T	*	*I'A	*	*I'C	*	*I'cor II in D	*I'cor I in D
*clefF4	*	*clefG2	*clefG2	*clefF4	*	*clefC4	*	*clefC3	*	*clefC1	*	*clefG2	*clefG2
*	*	*	*	*	*	*	*	*	*	*	*	*ITrd6c10	*ITrd6c10
*k[f#c#]	*	*k[f#c#]	*k[f#c#]	*k[f#c#]	*	*k[f#c#]	*	*k[f#c#]	*	*k[f#c#]	*	*k[f#c#]	*k[f#c#]
*D:	*	*D:	*D:	*D:	*	*D:	*	*D:	*	*D:	*	*	*
*M4/4	*	*M4/4	*M4/4	*M4/4	*	*M4/4	*	*M4/4	*	*M4/4	*	*M4/4	*M4/4
*met(c)	*	*met(c)	*met(c)	*met(c)	*	*met(c)	*	*met(c)	*	*met(c)	*	*met(c)	*met(c)
=1	=1	=1	=1	=1	=1	=1	=1	=1	=1	=1	=1	=1	=1
!LO:TX:rj:b:i:t=Memento	!	!	!	!	!	!	!	!	!	!	!	!LO:TX:b:i:t=Memento rerum Conditor	!LO:SIC:o=:v:wszystkie nuty maja caudy z prawej strony
!LO:SIC:o=:v:wszystkie nuty maja caudy z prawej strony	!	!LO:TX:b:i:t=Memento rerum Conditor	!LO:TX:b:i:t=Memento rerum conditor	!	!	!	!	!	!	!	!	!LO:SIC:o=:v:wszystkie nuty maja caudy z prawej strony	!LO:TX:b:i:t=Memento rerum Conditor
4d\	.	4ff#\	4aa\	00r	.	00r	.	00r	.	00r	.	4f#\	4a\
4r	.	8r	8r	.	.	.	.	.	.	.	.	8r	8r
.	.	16ff#\LL	16aa\LL	.	.	.	.	.	.	.	.	16f#\LL	16a\LL
.	.	16ee\JJ	16gg\JJ	.	.	.	.	.	.	.	.	16e\JJ	16g\JJ
8r	.	8dd\L	8ff#\L	.	.	.	.	.	.	.	.	8d\	8f#\
16A\LL	.	16cc#\L	16ee\L	.	.	.	.	.	.	.	.	8r	8r
16G\JJ	.	16b\JJ	16dd\JJ	.	.	.	.	.	.	.	.	.	.
8F#\L	.	8a/L	8cc#\L	.	.	.	.	.	.	.	.	4r	4r
16E\L	.	8a/J	16b\L	.	.	.	.	.	.	.	.	.	.
16D\JJ	.	.	16a\JJ	.	.	.	.	.	.	.	.	.	.
=2	=2	=2	=2	=2	=2	=2	=2	=2	=2	=2	=2	=2	=2
4C#/	.	8r	8r	.	.	.	.	.	.	.	.	8r	8r
.	.	16ff#\LL	16aa\LL	.	.	.	.	.	.	.	.	16f#\LL	16a\LL
.	.	16ee\JJ	16gg\JJ	.	.	.	.	.	.	.	.	16e\JJ	16g\JJ
!	!	!	!	!	!	!	!	!	!	!	!	!LO:TX:a:t=P:problem=mixed beam	!
4AA/	.	8dd\L	8ff#\L	.	.	.	.	.	.	.	.	8d\L	8f#\L
.	.	16cc#\L	16ee\L	.	.	.	.	.	.	.	.	16A/L	16e\L
.	.	16b\JJ	16dd\JJ	.	.	.	.	.	.	.	.	16F#/JJ	16d\JJ
!	!	!	!	!	!	!	!	!	!	!	!	!LO:TX:a:t=P:problem=mixed beam	!
4r	.	8cc#\L	8ee\L	.	.	.	.	.	.	.	.	8A/L	8e\L
.	.	8cc#\	8ee\	.	.	.	.	.	.	.	.	8A/	8e\
!LO:N:vis=8	!	!	!	!	!	!	!	!	!	!	!	!	!
16AA/LL	.	8cc#\	8ee\	.	.	.	.	.	.	.	.	8A/	8e\
!LO:N:vis=8	!	!	!	!	!	!	!	!	!	!	!	!	!
16BB/	.	.	.	.	.	.	.	.	.	.	.	.	.
!LO:N:vis=8	!	!	!	!	!	!	!	!	!	!	!	!	!
16C#/	.	8ff#\J	8aa\J	.	.	.	.	.	.	.	.	8f#\J	8a\J
!LO:N:vis=8	!	!	!	!	!	!	!	!	!	!	!	!	!
16D/JJ	.	.	.	.	.	.	.	.	.	.	.	.	.
=3	=3	=3	=3	=3	=3	=3	=3	=3	=3	=3	=3	=3	=3
4G\	.	16gg\LL	16bb\LL	.	.	.	.	.	.	.	.	8g\L	8b\L
.	.	16gg\	16bb\	.	.	.	.	.	.	.	.	.	.
.	.	16gg\	16bb\	.	.	.	.	.	.	.	.	8g\	8b\
.	.	16gg\JJ	16bb\JJ	.	.	.	.	.	.	.	.	.	.
8r	.	16gg\LL	16bb\LL	.	.	.	.	.	.	.	.	8g\	8b\
.	.	16gg\	16bb\	.	.	.	.	.	.	.	.	.	.
8G\	.	16gg\	16bb\	.	.	.	.	.	.	.	.	8g\J	8b\J
.	.	16gg\JJ	16bb\JJ	.	.	.	.	.	.	.	.	.	.
4C#X/	5	16e/LL	16b/LL	.	.	.	.	.	.	.	.	2r	2r
.	.	16e/	16b/	.	.	.	.	.	.	.	.	.	.
.	.	16e/	16b/	.	.	.	.	.	.	.	.	.	.
.	.	16e/JJ	16b/JJ	.	.	.	.	.	.	.	.	.	.
8r	.	16e/LL	16b/LL	.	.	.	.	.	.	.	.	.	.
.	.	16e/	16b/	.	.	.	.	.	.	.	.	.	.
8C#X/	.	16e/	16b/	.	.	.	.	.	.	.	.	.	.
.	.	16e/JJ	16b/JJ	.	.	.	.	.	.	.	.	.	.
=4	=4	=4	=4	=4	=4	=4	=4	=4	=4	=4	=4	=4	=4
4F#\	.	16ff#\LL	16aa\LL	.	.	.	.	.	.	.	.	8f#\L	8a\L
.	.	16ff#\	16aa\	.	.	.	.	.	.	.	.	.	.
.	.	16ff#\	16aa\	.	.	.	.	.	.	.	.	8f#\	8a\
.	.	16ff#\JJ	16aa\JJ	.	.	.	.	.	.	.	.	.	.
8r	.	16ff#\LL	16aa\LL	.	.	.	.	.	.	.	.	8f#\	8a\
.	.	16ff#\	16aa\	.	.	.	.	.	.	.	.	.	.
8F#\	.	16ff#\	16aa\	.	.	.	.	.	.	.	.	8f#\J	8a\J
.	.	16ff#\JJ	16aa\JJ	.	.	.	.	.	.	.	.	.	.
*	*	*	*custos:f#	*	*	*	*	*	*	*	*	*	*
!	!	!	!LO:LB:g=original	!	!	!	!	!	!	!	!	!	!
4D/	.	16d/LL	16f#/LL	.	.	.	.	.	.	.	.	2r	2r
.	.	16d/	16f#/	.	.	.	.	.	.	.	.	.	.
.	.	16d/	16f#/	.	.	.	.	.	.	.	.	.	.
.	.	16d/JJ	16f#/JJ	.	.	.	.	.	.	.	.	.	.
8r	.	16d/LL	16f#/LL	.	.	.	.	.	.	.	.	.	.
.	.	16d/	16f#/	.	.	.	.	.	.	.	.	.	.
8D/	.	16d/	16f#/	.	.	.	.	.	.	.	.	.	.
.	.	16d/JJ	16f#/JJ	.	.	.	.	.	.	.	.	.	.
=5	=5	=5	=5	=5	=5	=5	=5	=5	=5	=5	=5	=5	=5
8D\L	.	8ff#\L	8aa\L	2r	.	2r	.	2r	.	2r	.	8f#\L	8a\L
16F#\L	6	16ee\L	16gg\L	.	.	.	.	.	.	.	.	16e\L	16g\L
16G\JJ	6 5	16dd\JJ	16ff#\JJ	.	.	.	.	.	.	.	.	16d\JJ	16f#\JJ
!LO:TX:a:t=P:problem=mixed beam	!	!	!	!	!	!	!	!	!	!	!	!	!
8A\L	.	8cc#\L	8ee\L	.	.	.	.	.	.	.	.	8A/L	8e\L
.	4	.	.	.	.	.	.	.	.	.	.	.	.
8AA/J	.	8cc#\J	8ee\J	.	.	.	.	.	.	.	.	8A/J	8e\J
.	3	.	.	.	.	.	.	.	.	.	.	.	.
4D/	.	4dd\	4dd\	8r	.	8r	.	8r	.	8r	.	4F#/	4d\
!	!	!	!	!LO:SIC:o=:v:wszystkie nuty maja caudy z prawej strony	!	!LO:SIC:o=:v:wszystkie nuty maja caudy z prawej strony	!	!LO:SIC:o=:v:wszystkie nuty maja caudy z prawej strony	!	!LO:SIC:o=:v:wszystkie nuty maja caudy z prawej strony	!	!	!
.	.	.	.	8d\	Me-	8d\	Me-	8a\	Me-	8ff#\	Me-	.	.
8r	.	8r	8r	8D/	-men-	8d\	-men-	8a\	-men-	8ff#\	-men-	8r	8r
!	!	!LO:LB:g=original	!	!	!	!	!	!	!	!	!	!	!
8D/	.	8ff#\	8aa\	8D/	-to	8d\	-to	8a\	-to	8ff#\	-to	8f#\	8a\
=6	=6	=6	=6	=6	=6	=6	=6	=6	=6	=6	=6	=6	=6
4G\	.	16gg\LL	16bb\LL	0r	.	0r	.	0r	.	0r	.	8g\L	8b\L
.	.	16gg\	16bb\	.	.	.	.	.	.	.	.	.	.
.	.	16gg\	16bb\	.	.	.	.	.	.	.	.	8g\	8b\
.	.	16gg\JJ	16bb\JJ	.	.	.	.	.	.	.	.	.	.
8r	.	16gg\LL	16bb\LL	.	.	.	.	.	.	.	.	8g\	8b\
.	.	16gg\	16bb\	.	.	.	.	.	.	.	.	.	.
8G\	.	16gg\	16bb\	.	.	.	.	.	.	.	.	8g\J	8b\J
.	.	16gg\JJ	16bb\JJ	.	.	.	.	.	.	.	.	.	.
!LO:LB:g=original	!	!	!	!	!	!	!	!	!	!	!	!	!
4C#/	5	16e/LL	16g/LL	.	.	.	.	.	.	.	.	2r	2r
.	.	16e/	16g/	.	.	.	.	.	.	.	.	.	.
.	.	16e/	16g/	.	.	.	.	.	.	.	.	.	.
.	.	16e/JJ	16g/JJ	.	.	.	.	.	.	.	.	.	.
8r	.	16e/LL	16g/LL	.	.	.	.	.	.	.	.	.	.
.	.	16e/	16g/	.	.	.	.	.	.	.	.	.	.
8C#/	.	16e/	16g/	.	.	.	.	.	.	.	.	.	.
.	.	16e/JJ	16g/JJ	.	.	.	.	.	.	.	.	.	.
=7	=7	=7	=7	=7	=7	=7	=7	=7	=7	=7	=7	=7	=7
!!pagebreak:original
4F#\	.	16ff#\LL	16aa\LL	.	.	.	.	.	.	.	.	8f#\L	8a\L
.	.	16ff#\	16aa\	.	.	.	.	.	.	.	.	.	.
.	.	16ff#\	16aa\	.	.	.	.	.	.	.	.	8f#\	8a\
.	.	16ff#\JJ	16aa\JJ	.	.	.	.	.	.	.	.	.	.
8r	.	16ff#\LL	16aa\LL	.	.	.	.	.	.	.	.	8f#\	8a\
.	.	16ff#\	16aa\	.	.	.	.	.	.	.	.	.	.
8F#\	.	16ff#\	16aa\	.	.	.	.	.	.	.	.	8f#\J	8a\J
.	.	16ff#\JJ	16aa\JJ	.	.	.	.	.	.	.	.	.	.
4D/	.	16d/LL	16f#/LL	.	.	.	.	.	.	.	.	2r	2r
.	.	16d/	16f#/	.	.	.	.	.	.	.	.	.	.
.	.	16d/	16f#/	.	.	.	.	.	.	.	.	.	.
.	.	16d/JJ	16f#/JJ	.	.	.	.	.	.	.	.	.	.
8r	.	16d/LL	16f#/LL	.	.	.	.	.	.	.	.	.	.
.	.	16d/	16f#/	.	.	.	.	.	.	.	.	.	.
8D/	.	16d/	16f#/	.	.	.	.	.	.	.	.	.	.
.	.	16d/JJ	16f#/JJ	.	.	.	.	.	.	.	.	.	.
=8	=8	=8	=8	=8	=8	=8	=8	=8	=8	=8	=8	=8	=8
8D\L	.	8ff#\L	8aa\L	2r	.	2r	.	2r	.	2r	.	8f#\L	8a\L
16F#\L	6	16ee\L	16gg\L	.	.	.	.	.	.	.	.	16e\L	16g\L
16G\JJ	6 5	16dd\JJ	16ff#\JJ	.	.	.	.	.	.	.	.	16d\JJ	16f#\JJ
*	*	*	*custos:ee	*	*	*	*	*	*	*	*	*	*
!LO:TX:a:t=P:problem=mixed beam	!	!	!	!	!	!	!	!	!	!	!	!	!
!	!	!	!LO:LB:g=original	!	!	!	!	!	!	!	!	!	!
8A\L	.	8cc#\L	8ee\L	.	.	.	.	.	.	.	.	8A/L	8e\L
.	4	.	.	.	.	.	.	.	.	.	.	.	.
8AA/J	.	8cc#\J	8ee\J	.	.	.	.	.	.	.	.	8A/J	8e\J
.	3	.	.	.	.	.	.	.	.	.	.	.	.
!	!	!	!	!	!	!	!	!	!	!	!	!LO:LB:g=original	!LO:LB:g=original
8D/	.	8dd\	8dd\	8r	.	8r	.	8r	.	8r	.	8F#/	8d\
8r	.	8r	8r	8d\	Me-	8d\	Me-	8a\	me-	8ff#\	me-	8r	8r
4r	.	4r	4r	8D/	-men-	8d\	-men-	8a\	-men-	8ff#\	-men-	4r	4r
.	.	.	.	8D/	-to	8d\	-to	8a\	-to	8ff#\	-to	.	.
=9	=9	=9	=9	=9	=9	=9	=9	=9	=9	=9	=9	=9	=9
!!pagebreak:original
!LO:TX:b:i:t=tutti	!	!	!	!	!	!	!	!	!	!	!	!	!
8AA/L	.	16cc#\LL	16ee\LL	4r	.	4r	.	4r	.	4r	.	8A/L	8e\L
.	.	16cc#\	16ee\	.	.	.	.	.	.	.	.	.	.
8BB/	.	16cc#\	16ee\	.	.	.	.	.	.	.	.	8A/	8e\
.	.	16cc#\JJ	16ee\JJ	.	.	.	.	.	.	.	.	.	.
8C#/	6	16cc#\LL	16ee\LL	8r	.	8r	.	8r	.	8r	.	8A/	8e\
.	.	16cc#\	16ee\	.	.	.	.	.	.	.	.	.	.
8AA/J	.	16cc#\	16ee\	8A\	Me-	8c#\	Me-	8a\	me-	8ee\	me-	8A/J	8e\J
.	.	16cc#\JJ	16ee\JJ	.	.	.	.	.	.	.	.	.	.
8D/L	.	16dd\LL	16ff#\LL	8d\	-men-	8d\	-men-	8a\	-men-	8ff#\	-men-	8d\L	8f#\L
.	.	16dd\	16aa\	.	.	.	.	.	.	.	.	.	.
8AA/	.	16cc#\	16ee\	8A\	-to	8c#\	-to	8a\	-to	8ee\	-to	8A\	8e\
.	.	16cc#\JJ	16aa\JJ	.	.	.	.	.	.	.	.	.	.
8D/	.	16dd\LL	16ff#\LL	8d\	re-	8d\	re-	8a\	re-	8ff#\	re-	8d\	8f#\
.	.	16dd\	16ff#\	.	.	.	.	.	.	.	.	.	.
8AA/J	.	16cc#\	16ee\	8A\	-rum	8e\	-rum	8a\	-rum	8cc#\	-rum	8A\J	8e\J
.	.	16cc#\JJ	16ee\JJ	.	.	.	.	.	.	.	.	.	.
=10	=10	=10	=10	=10	=10	=10	=10	=10	=10	=10	=10	=10	=10
8D/L	.	8dd\L	8ff#\L	8D/	Con-	8f#\	Con-	8a\	Con-	8dd\	con-	8d\L	8f#\L
8D/J	.	8dd\J	8ff#\J	16D/	-di-	16f#\	-di-	16a\	-di-	16dd\	-di-	8d\J	8f#\J
.	.	.	.	16D/	-tor	16f#\	-tor	16a\	-tor	16dd\	-tor	.	.
16d\LL	.	8r	8r	8r	.	8r	.	8r	.	8r	.	8r	8r
16c#\	.	.	.	.	.	.	.	.	.	.	.	.	.
16d\	.	8cc#\	8ee\	8A\	Me-	8c#\	me-	8a\	me-	8ee\	nas-	8A/	8e\
16A\JJ	.	.	.	.	.	.	.	.	.	.	.	.	.
*	*	*custos:dd	*	*	*	*	*	*	*	*	*	*	*
!	!	!LO:LB:g=original	!	!	!	!	!	!	!	!	!	!	!
!	!	!	!	!	!	!	!	!	!	!	!	!LO:TX:a:t=P:problem=mixed beam	!
8d\L	.	16dd\LL	16ff#\LL	8D/	-men-	8d\	-men-	8a\	-men-	8ff#\	-cen-	8d\L	8f#\L
.	.	16dd\	16aa\	.	.	.	.	.	.	.	.	.	.
8A\	.	16cc#\	16ee\	8AA/	-to	8c#\	-to	8a\	-to	8ee\	-do	8A\	8e\
.	.	16cc#\JJ	16aa\JJ	.	.	.	.	.	.	.	.	.	.
!	!	!	!	!	!	!	!	!	!	!LO:LB:g=original	!	!	!
8d\	.	16dd\LL	16ff#\LL	8D/	re-	8d\	re-	8a\	re-	8ff#\	for-	8d\	8f#\
.	.	16dd\	16ff#\	.	.	.	.	.	.	.	.	.	.
8A\J	.	16cc#\	16ee\	8AA/	-rum	8e\	-rum	8a\	-rum	8ee\	-mam	8A\J	8e\J
.	.	16cc#\JJ	16ee\JJ	.	.	.	.	.	.	.	.	.	.
!	!	!	!	!LO:LB:g=original	!	!LO:LB:g=original	!	!LO:LB:g=original	!	!	!	!	!
=11	=11	=11	=11	=11	=11	=11	=11	=11	=11	=11	=11	=11	=11
!!pagebreak:original
!	!	!	!	!	!	!	!	!	!	!LO:SIC:o=:v:bardzo często decyzja "ſ" czy "s" uznaniowa	!	!	!
8d\L	.	8dd\L	8ff#\L	8D/	Con-	8f#\	Con-	8a\	con-	8ff#\	ſump-	8d\L	8f#\L
16D\L	.	8dd\J	8ff#\J	16D/	-di-	16f#\	-di-	16a\	-di-	16ff#\	-se-	8d\	8f#\
16E\JJ	.	.	.	16D/	-tor	16f#\	-tor	16a\	-tor	16ff#\	-ris	.	.
8F#\L	6	4r	4r	4r	.	4r	.	4r	.	4r	.	8d\	8f#\
8D\J	.	.	.	.	.	.	.	.	.	.	.	8f#\J	8a\J
4G\	.	2r	2r	2r	.	2r	.	2r	.	2r	.	8g\L	8b\L
.	.	.	.	.	.	.	.	.	.	.	.	8f#\	8a\
4r	.	.	.	.	.	.	.	.	.	.	.	8e\	8g\
.	.	.	.	.	.	.	.	.	.	.	.	8d\J	8f#\J
=12	=12	=12	=12	=12	=12	=12	=12	=12	=12	=12	=12	=12	=12
8AA/L	.	1r	1r	00r	.	00r	.	0r	.	00r	.	4A/	4e\
8BB/	.	.	.	.	.	.	.	.	.	.	.	.	.
8C#/	6	.	.	.	.	.	.	.	.	.	.	8r	8r
8AA/J	.	.	.	.	.	.	.	.	.	.	.	8f#\	8a\
8G\L	.	.	.	.	.	.	.	.	.	.	.	8g\L	8b\L
8G\	.	.	.	.	.	.	.	.	.	.	.	8g\	8b\
8G\	.	.	.	.	.	.	.	.	.	.	.	8g\	8b\
8G\J	.	.	.	.	.	.	.	.	.	.	.	8g\J	8b\J
!LO:LB:g=original	!	!	!	!	!	!	!	!	!	!	!	!	!
=13	=13	=13	=13	=13	=13	=13	=13	=13	=13	=13	=13	=13	=13
4C#/	5	16e/LL	16g/LL	.	.	.	.	.	.	.	.	2r	2r
.	.	16e/	16g/	.	.	.	.	.	.	.	.	.	.
.	.	16e/	16g/	.	.	.	.	.	.	.	.	.	.
.	.	16e/JJ	16g/JJ	.	.	.	.	.	.	.	.	.	.
4r	.	16e/LL	16g/LL	.	.	.	.	.	.	.	.	.	.
.	.	16e/	16g/	.	.	.	.	.	.	.	.	.	.
.	.	16e/	16g/	.	.	.	.	.	.	.	.	.	.
.	.	16e/JJ	16g/JJ	.	.	.	.	.	.	.	.	.	.
8F#\L	.	2r	2r	.	.	.	.	.	.	.	.	8f#\L	8a\L
8F#\	.	.	.	.	.	.	.	.	.	.	.	8f#\	8a\
8F#\	.	.	.	.	.	.	.	.	.	.	.	8f#\	8a\
8F#\J	.	.	.	.	.	.	.	.	.	.	.	8f#\J	8a\J
*	*	*	*custos:f#	*	*	*	*	*	*	*	*	*	*
!	!	!	!LO:LB:g=original	!	!	!	!	!	!	!	!	!	!
=14	=14	=14	=14	=14	=14	=14	=14	=14	=14	=14	=14	=14	=14
!!pagebreak:original
4D/	.	16d/LL	16f#/LL	.	.	.	.	1r	.	.	.	2r	2r
.	.	16d/	16f#/	.	.	.	.	.	.	.	.	.	.
.	.	16d/	16f#/	.	.	.	.	.	.	.	.	.	.
.	.	16d/JJ	16f#/JJ	.	.	.	.	.	.	.	.	.	.
4r	.	16d/LL	16f#/LL	.	.	.	.	.	.	.	.	.	.
.	.	16d/	16f#/	.	.	.	.	.	.	.	.	.	.
.	.	16d/	16f#/	.	.	.	.	.	.	.	.	.	.
.	.	16d/JJ	16f#/JJ	.	.	.	.	.	.	.	.	.	.
8D\L	.	8ff#\L	8aa\L	.	.	.	.	.	.	.	.	8f#\L	8a\L
16F#\L	6	16ee\L	16gg\L	.	.	.	.	.	.	.	.	16e\L	16g\L
16G\JJ	6 5	16dd\JJ	16ff#\JJ	.	.	.	.	.	.	.	.	16d\JJ	16f#\JJ
!LO:TX:a:t=P:problem=mixed beam	!	!	!	!	!	!	!	!	!	!	!	!	!
8A\L	.	8cc#\L	8ee\L	.	.	.	.	.	.	.	.	8A/L	8e\L
8AA/J	.	8cc#\J	8ee\J	.	.	.	.	.	.	.	.	8A/J	8e\J
=15	=15	=15	=15	=15	=15	=15	=15	=15	=15	=15	=15	=15	=15
4D/	.	4dd\	4dd\	.	.	.	.	4f#\	No-	.	.	4F#/	4d\
4r	.	4r	4r	.	.	.	.	4f#\	-stri	.	.	4r	4r
!LO:TX:a:t=P:problem=mixed beam	!	!	!	!	!	!	!	!	!	!	!	!	!
16d\LL	.	2r	2r	.	.	.	.	2r	.	.	.	8d\L	8f#\L
16D/	.	.	.	.	.	.	.	.	.	.	.	.	.
16F#/	6	.	.	.	.	.	.	.	.	.	.	8d\	8f#\
16D/JJ	.	.	.	.	.	.	.	.	.	.	.	.	.
!LO:TX:a:t=P:problem=mixed beam	!	!	!	!	!	!	!	!	!	!	!	!	!
16d\LL	.	.	.	.	.	.	.	.	.	.	.	8d\	8f#\
16D/	.	.	.	.	.	.	.	.	.	.	.	.	.
16F#/	6	.	.	.	.	.	.	.	.	.	.	8d\J	8f#\J
16D/JJ	.	.	.	.	.	.	.	.	.	.	.	.	.
!	!	!	!	!	!	!	!	!	!	!	!	!	!LO:LB:g=original
=16	=16	=16	=16	=16	=16	=16	=16	=16	=16	=16	=16	=16	=16
4E/	.	00r	00r	00r	.	00r	.	4g\	No-	00r	.	2r	2r
4r	.	.	.	.	.	.	.	4g\	-stri	.	.	.	.
8E/L	.	.	.	.	.	.	.	2r	.	.	.	8e\L	8g\L
8D/	.	.	.	.	.	.	.	.	.	.	.	8e\	8g\
8C#/	.	.	.	.	.	.	.	.	.	.	.	8e\	8g\
8AA/J	.	.	.	.	.	.	.	.	.	.	.	8e\J	8g\J
!	!	!	!	!	!	!	!	!	!	!	!	!LO:LB:g=original	!
=17	=17	=17	=17	=17	=17	=17	=17	=17	=17	=17	=17	=17	=17
!!pagebreak:original
8D\L	.	.	.	.	.	.	.	4a\	No-	.	.	1r	1r
8E\	.	.	.	.	.	.	.	.	.	.	.	.	.
8F#\	.	.	.	.	.	.	.	8a\	-stri	.	.	.	.
8G\J	.	.	.	.	.	.	.	8b\	quod	.	.	.	.
4D\	.	.	.	.	.	.	.	8a\	o-	.	.	.	.
.	.	.	.	.	.	.	.	8g\	-lim	.	.	.	.
!LO:TX:a:t=P:problem=mixed beam	!	!	!	!	!	!	!	!	!	!	!	!	!
8A\L	.	.	.	.	.	.	.	8f#\	Cor-	.	.	.	.
8AA/J	.	.	.	.	.	.	.	16d\	-po-	.	.	.	.
.	.	.	.	.	.	.	.	16d\	-ris	.	.	.	.
=18	=18	=18	=18	=18	=18	=18	=18	=18	=18	=18	=18	=18	=18
8D\L	.	.	.	.	.	.	.	1r	.	.	.	8f#\L	8a\L
8E\	.	.	.	.	.	.	.	.	.	.	.	8f#\	8a\
8F#\	.	.	.	.	.	.	.	.	.	.	.	8f#\	8a\
8G\J	.	.	.	.	.	.	.	.	.	.	.	8g\J	8b\J
!	!	!	!	!	!	!	!	!	!	!	!	!LO:TX:a:t=P:problem=mixed beam	!
4D\	.	.	.	.	.	.	.	.	.	.	.	8f#\L	8a\L
.	.	.	.	.	.	.	.	.	.	.	.	8e\	8g\
!LO:TX:a:t=P:problem=mixed beam	!	!	!	!	!	!	!	!	!	!	!	!	!
8A\L	.	.	.	.	.	.	.	.	.	.	.	8d\	8f#\
8AA/J	.	.	.	.	.	.	.	.	.	.	.	8F#/J	8d\J
=19	=19	=19	=19	=19	=19	=19	=19	=19	=19	=19	=19	=19	=19
!LO:TX:a:t=P:problem=mixed beam	!	!	!	!	!	!	!	!	!	!	!	!LO:TX:a:t=2	!
!	!	!	!	!	!	!	!	!	!	!	!	!LO:N:vis=00	!
8E\L	.	.	.	.	.	.	.	8g\L	Sac-	.	.	0r	0r
8D\	.	.	.	.	.	.	.	8f#\J	.	.	.	.	.
8E\	.	.	.	.	.	.	.	8g\	-ra-	.	.	.	.
8AA/J	.	.	.	.	.	.	.	8a\	-ra	.	.	.	.
!LO:LB:g=original	!	!	!	!	!	!	!	!	!	!	!	!	!
8D\L	.	.	.	.	.	.	.	8f#\L	ab	.	.	.	.
8E\	.	.	.	.	.	.	.	8e\J	.	.	.	.	.
8F#\	.	.	.	.	.	.	.	8f#\	al-	.	.	.	.
8G\J	.	.	.	.	.	.	.	8g\	-vo	.	.	.	.
!	!	!	!	!	!	!	!	!LO:LB:g=original	!	!	!	!	!
=20	=20	=20	=20	=20	=20	=20	=20	=20	=20	=20	=20	=20	=20
!!pagebreak:original
!LO:TX:a:t=P:problem=mixed beam	!	!	!	!	!	!	!	!	!	!	!	!	!
8A\L	.	0r	0r	0r	.	0r	.	8.e\	Vir-	0r	.	.	.
16AA/L	.	.	.	.	.	.	.	.	.	.	.	.	.
16BB/JJ	.	.	.	.	.	.	.	16e\	-gi-	.	.	.	.
8C#/L	.	.	.	.	.	.	.	4e\	-nis	.	.	.	.
8AA/J	.	.	.	.	.	.	.	.	.	.	.	.	.
4D/	.	.	.	.	.	.	.	8.a\	Vir-	.	.	.	.
.	.	.	.	.	.	.	.	16g\	-gi-	.	.	.	.
4r	.	.	.	.	.	.	.	4f#\	-nis	.	.	.	.
=21	=21	=21	=21	=21	=21	=21	=21	=21	=21	=21	=21	=21	=21
2r	.	.	.	.	.	.	.	2r	.	.	.	8.f#\L	8.a\L
.	.	.	.	.	.	.	.	.	.	.	.	16e\Jk	16g\Jk
.	.	.	.	.	.	.	.	.	.	.	.	4d\	4f#\
4E\	.	.	.	.	.	.	.	8.g\	Vir-	.	.	2r	2r
.	.	.	.	.	.	.	.	16f#\	-gi-	.	.	.	.
4AA/	.	.	.	.	.	.	.	4e\	-nis	.	.	.	.
=22	=22	=22	=22	=22	=22	=22	=22	=22	=22	=22	=22	=22	=22
8AA/L	.	1r	1r	1r	.	1r	.	4r	.	1r	.	1r	1r
8BB/	.	.	.	.	.	.	.	.	.	.	.	.	.
8C#/	6	.	.	.	.	.	.	8r	.	.	.	.	.
8AA/J	.	.	.	.	.	.	.	8e\	Sac-	.	.	.	.
8D\L	.	.	.	.	.	.	.	8f#\	-ra-	.	.	.	.
8E\	.	.	.	.	.	.	.	8e\	-ra	.	.	.	.
8F#\	6	.	.	.	.	.	.	8f#\	ab	.	.	.	.
8D\J	.	.	.	.	.	.	.	16g\	al-	.	.	.	.
.	.	.	.	.	.	.	.	16f#\	-vo	.	.	.	.
=23	=23	=23	=23	=23	=23	=23	=23	=23	=23	=23	=23	=23	=23
!!pagebreak:original
!LO:TX:a:t=P:problem=mixed beam	!	!	!	!	!	!	!	!	!	!	!	!	!
8A\L	.	2r	2r	4r	.	4r	.	8.e\	Vir-	4r	.	2r	2r
8AA/J	.	.	.	.	.	.	.	.	.	.	.	.	.
.	.	.	.	.	.	.	.	16e\	-gi	.	.	.	.
8D/L	.	.	.	8r	.	8r	.	8d\	nis	8r	.	.	.
!LO:TX:b:i:t=tutti	!	!	!	!	!	!	!	!	!	!	!	!	!
8AA/	.	.	.	8A\	Nas-	8c#\	Nas-	8e\	Nas-	8ee\	Nas-	.	.
8D/	.	4r	4r	8d\	-cen-	8d\	-cen-	8f#\	-cen-	8ff#\	-cen-	4r	4r
8AA/J	.	.	.	8A\	-do	8c#\	-do	8e\	-do	8ee\	-do	.	.
8D/L	.	8r	8r	4r	.	4r	.	4r	.	4r	.	8r	8r
8AA/J	.	8cc#\	8ee\	.	.	.	.	.	.	.	.	8A/	8e\
=24	=24	=24	=24	=24	=24	=24	=24	=24	=24	=24	=24	=24	=24
8D/L	.	8dd\L	8ff#\L	8r	.	8r	.	8r	.	8r	.	8d\L	8f#\L
8AA/J	.	8cc#\J	8ee\	8A\	nas-	8c#\	nas-	8e\	nas-	8ee\	nas-	8A\	8e\
*	*	*custos:dd	*	*	*	*	*	*	*	*	*	*	*
!	!	!LO:LB:g=original	!	!	!	!	!	!	!	!	!	!	!
8D/L	.	8dd\L	8ff#\	8d\	-cen-	8d\	-cen-	8f#\	-cen-	8ff#\	-cen-	8d\	8f#\
8AA/J	.	8cc#\J	8ee\J	8A\	-do	8c#\	-do	8e\	-do	8ee\	-do	8A\J	8e\J
!	!	!	!	!	!	!	!	!LO:LB:g=original	!	!	!	!	!
4E\	.	8ee\L	8gg\L	4E\	for-	4B\	for-	4g\	for-	4gg\	for-	4e\	8g\L
.	.	8ff#\J	8aa\	.	.	.	.	.	.	.	.	.	8a\
4D\	.	8dd\L	8ff#\	8F#\L	-mam	4d\	-mam	4f#\	-mam	4ff#\	-mam	4d\	8f#\
.	.	8ee\J	8gg\J	8G\J	.	.	.	.	.	.	.	.	8g\J
=25	=25	=25	=25	=25	=25	=25	=25	=25	=25	=25	=25	=25	=25
!	!	!	!	!LO:SIC:o=:v:wszystkie nuty maja caudy z prawej strony	!	!LO:SIC:o=:v:bardzo często decyzja "ſ" czy "s" uznaniowa	!	!LO:SIC:o=:v:bardzo często decyzja "ſ" czy "s" uznaniowa	!	!	!	!	!
4.A\	.	4.cc#\	4.ee\	4.A\	ſump-	4.c#\	ſump-	4.e\	ſump-	4.ee\	ſump-	4.A/	4.e\
8AA/	.	8cc#\	8ee\	8AA/	-se-	8c#\	-se-	8e\	-se-	8ee\	-se-	8A/	8e\
!	!	!	!	!	!	!LO:SIC:s=:v:4d	!	!	!	!	!	!	!
4D/	.	4dd\	4dd\	4D/	-ris	4c#\	-ris	4d\	-ris	4dd\	-ris	4F#/	4d\
4r	.	4r	4r	4r	.	4r	.	4a\	Nas-	4r	.	4r	4r
=26	=26	=26	=26	=26	=26	=26	=26	=26	=26	=26	=26	=26	=26
!!pagebreak:original
*	*	*	*	*	*	*	*	*2\right	*	*	*	*	*
8r	.	8r	8r	8r	.	8r	.	2a\	-cen-	8r	.	8r	8r
8A\L	.	8cc#\L	8ee\L	8AA/	Nas-	8c#\	Nas-	.	.	8ee\	Nas-	8A/L	8e\L
8d\	.	8dd\	8ff#\	8D/	-cen-	8d\	-cen-	.	.	8ff#\	-cen-	8d/	8f#\
8A\J	.	8cc#\J	8ee\J	8AA/	-do	8c#\	-do	.	.	8ee\	-do	8A/J	8e\J
!LO:LB:g=original	!	!	!	!	!	!	!	!	!	!	!	!	!
8r	.	8r	8r	8r	.	8r	.	2a\	-do	8r	.	8r	8r
*	*	*	*	*	*ij	*	*ij	*	*	*	*	*	*
8A\L	.	8cc#\L	8ee\L	8AA/	Nas-	8c#\	Nas-	.	.	8ee\	nas-	8A/L	8e\L
!	!	!	!	!	!	!	!	!	!	!LO:LB:g=original	!	!	!
8d\	.	8dd\	8ff#\	8D/	-cen-	8d\	-cen-	.	.	8ff#\	-cen-	8d/	8f#\
8A\J	.	8cc#\J	8ee\J	8AA/	-do	8c#\	-do	.	.	8ee\	-do	8A/J	8e\J
*	*	*	*	*	*Xij	*	*Xij	*	*	*	*	*	*
!	!	!	!	!LO:LB:g=original	!	!LO:LB:g=original	!	!	!	!	!	!	!
=27	=27	=27	=27	=27	=27	=27	=27	=27	=27	=27	=27	=27	=27
4d\	.	4dd\	4ff#\	4D/	na	4d\	Na	4a\	.	4ff#\	na	4d\	4f#\
8r	.	8r	8r	8r	.	8r	.	8r	.	8r	.	8r	8r
8D/	.	8ff#\	8aa\	8D/	nas-	8d\	Nas-	8a\	Nas-	8ff#\	Nas-	8f#\	8a\
*	*	*	*custos:gg	*	*	*	*	*	*	*	*	*	*
!	!	!	!LO:LB:g=original	!	!	!	!	!	!	!	!	!	!LO:LB:g=original
!LO:TX:a:t=P:problem=mixed beam	!	!	!	!	!	!	!	!	!	!	!	!	!
8E\L	6	8ee\L	8gg\L	8E\	-cen-	8e\	-cen-	8g\	-cen-	8gg\	-cen-	8e\L	8g\L
8D\	6	8dd\	8ff#\	8D/	-do	8d\	-do	8f#\	-do	8dd\	-do	8d\	8f#\
8E\	6	8ee\	8gg\	8E\	for-	8e\	for-	8g\	for-	8ff#\	for-	8e\	8g\
8AA/J	.	8ff#\J	8aa\J	8AA/	-mam	8f#\	-mam	8a\	-mam	8gg\	-mam	8f#\J	8a\J
=28	=28	=28	=28	=28	=28	=28	=28	=28	=28	=28	=28	=28	=28
!!pagebreak:original
!LO:TX:a:t=P:problem=mixed beam	!	!	!	!	!	!	!	!	!	!	!	!	!
8A\L	.	8cc#\L	8ee\L	8A\	ſump-	8.c#\	ſump-	8.e\	ſump-	8.ee\	ſump-	8A/L	8e\L
.	4	.	.	.	.	.	.	.	.	.	.	.	.
8AA/J	.	8cc#\J	8ee\J	8AA/	-se-	.	.	.	.	.	.	8A/J	8e\J
.	3	.	.	.	.	16c#\	-se-	16e\	-se-	16ee\	-se-	.	.
4D\	.	4dd\	4dd\	4D/	-ris	4d\	-ris	4d\	-ris	4dd\	-ris	4F#/	4d\
!LO:TX:a:t=P:problem=mixed beam	!	!	!	!	!	!	!	!	!	!	!	!	!
8A\L	.	16dd/LL	16dd\LL	8A\	ſump-	8.c#\	ſump-	8.e\	ſump-	8.ee\	ſump-	8D/L	8D/L
.	4	16a/	16a\	.	.	.	.	.	.	.	.	.	.
8AA/J	.	16f#/	16f#\	8AA/	-se-	.	.	.	.	.	.	16D/L	16D/L
.	3	16a/JJ	16a\JJ	.	.	16c#\	-se-	16e\	-se-	16ee\	-se-	16D/JJ	16D/JJ
!	!	!LO:TX:a:t=P:problem=mixed beam	!LO:TX:a:t=P:problem=mixed beam	!	!	!	!	!	!	!	!	!	!
4D\	.	8dd\L	8d/L	4D/	-ris	4d\	-ris	8d\	-ris	4ff#\	-ris	4D/	4D/
.	.	8d/J	8dd/J	.	.	.	.	8r	.	.	.	.	.
!	!	!LO:LB:g=original	!	!	!	!	!	!	!	!	!	!LO:LB:g=original	!
=29||	=29||	=29||	=29||	=29||	=29||	=29||	=29||	=29||	=29||	=29||	=29||	=29||	=29||
*M3/4	*	*M3/4	*M3/4	*M3/4	*	*	*	*M3/4	*	*	*	*M3/4	*M3/4
!	!	!	!	!	!	!	!	!	!	!	!	!	!LO:TX:b:i:t=Maria Mater gratiae.
!LO:TX:b:i:t=Maria Mater.	!	!LO:TX:a:t=Maria Mater gratiae \nTacet.	!LO:TX:a:t=Maria Mater gratiae \nTacet	!	!	!LO:TX:a:t=Maria Mater gratiae \nTacet.	!	!LO:TX:a:t=Solo	!	!LO:TX:a:t=Maria Mater gratiae \nTacet.	!	!	!LO:TX:a:t=Solo
!	!	!	!	!LO:N:vis=00	!	!	!	!LO:N:vis=00	!	!	!	!	!
4D\	.	2.ryy	2.ryy	0.r	.	2.ryy	.	0.r	.	2.ryy	.	8d\L	8f#\L
.	.	.	.	.	.	.	.	.	.	.	.	8e\J	8g\J
4F#\	.	.	.	.	.	.	.	.	.	.	.	4f#\	4a\
4D\	.	.	.	.	.	.	.	.	.	.	.	4d\	4f#\
=30	=30	=30	=30	=30	=30	=30	=30	=30	=30	=30	=30	=30	=30
*	*	*	*	*	*	*	*	*	*	*	*	*2\right	*2\right
4E\	.	2.ryy	2.ryy	.	.	2.ryy	.	.	.	2.ryy	.	2e\	2g\
4C#/	6	.	.	.	.	.	.	.	.	.	.	.	.
4AA/	.	.	.	.	.	.	.	.	.	.	.	4f#\	4a\
=31	=31	=31	=31	=31	=31	=31	=31	=31	=31	=31	=31	=31	=31
2D/	.	2.ryy	2.ryy	.	.	2.ryy	.	.	.	2.ryy	.	4.d\	4.f#\
.	.	.	.	.	.	.	.	.	.	.	.	8A/	8e\
4D/	.	.	.	.	.	.	.	.	.	.	.	4A/	4d\
=32	=32	=32	=32	=32	=32	=32	=32	=32	=32	=32	=32	=32	=32
4r	.	2.ryy	2.ryy	.	.	2.ryy	.	.	.	2.ryy	.	4f#\	4a\
4r	.	.	.	.	.	.	.	.	.	.	.	4d\	4f#\
16D/LL	3	.	.	.	.	.	.	.	.	.	.	4r	4r
16C#/	3	.	.	.	.	.	.	.	.	.	.	.	.
16D/	3	.	.	.	.	.	.	.	.	.	.	.	.
16AA/JJ	3	.	.	.	.	.	.	.	.	.	.	.	.
=33	=33	=33	=33	=33	=33	=33	=33	=33	=33	=33	=33	=33	=33
!	!	!	!	!LO:N:vis=0	!	!	!	!LO:N:vis=0	!	!	!	!	!
4r	.	2.ryy	2.ryy	1.r	.	2.ryy	.	1.r	.	2.ryy	.	4e\	4g\
4r	.	.	.	.	.	.	.	.	.	.	.	4A/	4e\
16E/LL	3	.	.	.	.	.	.	.	.	.	.	4r	4r
16D/	3	.	.	.	.	.	.	.	.	.	.	.	.
16C#/	3	.	.	.	.	.	.	.	.	.	.	.	.
16AA/JJ	3	.	.	.	.	.	.	.	.	.	.	.	.
=34	=34	=34	=34	=34	=34	=34	=34	=34	=34	=34	=34	=34	=34
!!pagebreak:original
8D\L	.	2.ryy	2.ryy	.	.	2.ryy	.	.	.	2.ryy	.	8d\L	8f#\L
8G\J	6 5	.	.	.	.	.	.	.	.	.	.	8e\J	8g\J
4A\	.	.	.	.	.	.	.	.	.	.	.	4d\	4f#\
.	4	.	.	.	.	.	.	.	.	.	.	.	.
4AA/	.	.	.	.	.	.	.	.	.	.	.	4A/	4e\
.	3	.	.	.	.	.	.	.	.	.	.	.	.
=35	=35	=35	=35	=35	=35	=35	=35	=35	=35	=35	=35	=35	=35
4D\	.	2.ryy	2.ryy	8D\L	Ma-	2.ryy	.	8f#\L	Ma-	2.ryy	.	4F#/	4d\
.	.	.	.	8E\J	.	.	.	8g\J	.	.	.	.	.
!LO:LB:g=original	!	!	!	!	!	!	!	!	!	!	!	!	!
4F#\	6	.	.	4F#\	-ri-	.	.	4a\	-ri-	.	.	4r	4r
4D\	.	.	.	4D\	-a	.	.	4f#\	-a	.	.	4r	4r
!	!	!	!	!	!	!	!	!LO:LB:g=original	!	!	!	!	!
=36	=36	=36	=36	=36	=36	=36	=36	=36	=36	=36	=36	=36	=36
*	*	*	*	*2\right	*	*	*	*	*	*	*	*	*
!	!	!	!	!	!	!	!	!	!	!	!	!LO:N:vis=0	!LO:N:vis=0
4E\	.	2.ryy	2.ryyyy	2E\	Ma-	2.ryy	.	2g\	Ma-	2.ryy	.	1.r	1.r
4C#/	6	.	.	.	.	.	.	.	.	.	.	.	.
4AA/	.	.	.	4F#\	-ter	.	.	4a\	-ter	.	.	.	.
=37	=37	=37	=37	=37	=37	=37	=37	=37	=37	=37	=37	=37	=37
2D/	.	2.ryy	2.ryy	4.D/	gra-	2.ryy	.	4.f#\	gra-	2.ryy	.	.	.
.	.	.	.	8D/	-ti-	.	.	8e\	-ti-	.	.	.	.
4D/	.	.	.	4D/	-ae	.	.	4d\	-ae	.	.	.	.
=38	=38	=38	=38	=38	=38	=38	=38	=38	=38	=38	=38	=38	=38
!	!	!	!	!LO:N:vis=0	!	!	!	!LO:N:vis=0	!	!	!	!	!
4r	.	2.ryy	2.ryy	1.r	.	2.ryy	.	1.r	.	2.ryy	.	4f#\	4a\
4r	.	.	.	.	.	.	.	.	.	.	.	4d\	4f#\
16d\LL	3	.	.	.	.	.	.	.	.	.	.	4r	4r
16c#\	3	.	.	.	.	.	.	.	.	.	.	.	.
16d\	3	.	.	.	.	.	.	.	.	.	.	.	.
16A\JJ	3	.	.	.	.	.	.	.	.	.	.	.	.
=39	=39	=39	=39	=39	=39	=39	=39	=39	=39	=39	=39	=39	=39
4r	.	2.ryy	2.ryy	.	.	2.ryy	.	.	.	2.ryy	.	4e\	4g\
4r	.	.	.	.	.	.	.	.	.	.	.	4A/	4e\
16E/LL	.	.	.	.	.	.	.	.	.	.	.	4r	4r
16D/	.	.	.	.	.	.	.	.	.	.	.	.	.
16C#/	.	.	.	.	.	.	.	.	.	.	.	.	.
16AA/JJ	.	.	.	.	.	.	.	.	.	.	.	.	.
!	!	!	!	!	!	!	!	!	!	!	!	!	!LO:LB:g=original
=40	=40	=40	=40	=40	=40	=40	=40	=40	=40	=40	=40	=40	=40
8D\L	.	2.ryy	2.ryy	2.r	.	2.ryy	.	2.r	.	2.ryy	.	8d\L	8f#\L
16F#\L	6	.	.	.	.	.	.	.	.	.	.	8e\J	8g\J
16G\JJ	6 5	.	.	.	.	.	.	.	.	.	.	.	.
4A\	.	.	.	.	.	.	.	.	.	.	.	4d\	4f#\
.	4	.	.	.	.	.	.	.	.	.	.	.	.
4AA/	#	.	.	.	.	.	.	.	.	.	.	4A/	4e\
.	3	.	.	.	.	.	.	.	.	.	.	.	.
=41	=41	=41	=41	=41	=41	=41	=41	=41	=41	=41	=41	=41	=41
!!pagebreak:original
4D\	.	2.ryy	2.ryy	8D\L	Ma-	2.ryy	.	8f#\L	Ma-	2.ryy	.	4F#/	4d\
.	.	.	.	8E\J	.	.	.	8g\J	.	.	.	.	.
4F#\	6	.	.	4F#\	-ri-	.	.	4a\	-ri-	.	.	4r	4r
4D\	.	.	.	4D\	-a	.	.	4f#\	-a	.	.	4r	4r
!	!	!	!	!LO:LB:g=original	!	!	!	!	!	!	!	!	!
=42	=42	=42	=42	=42	=42	=42	=42	=42	=42	=42	=42	=42	=42
!	!	!	!	!	!	!	!	!	!	!	!	!LO:N:vis=00	!LO:N:vis=00
4E\	.	2.ryy	2.ryy	2E\	Ma-	2.ryy	.	2g\	Ma-	2.ryy	.	0.r	0.r
4C#/	6	.	.	.	.	.	.	.	.	.	.	.	.
4AA/	.	.	.	4F#\	-ter	.	.	4a\	-ter	.	.	.	.
=43	=43	=43	=43	=43	=43	=43	=43	=43	=43	=43	=43	=43	=43
2D/	.	2.ryy	2.ryy	4.D/	gra-	2.ryy	.	4.f#\	gra-	2.ryy	.	.	.
.	.	.	.	8D/	-ti-	.	.	8e\	-ti-	.	.	.	.
4D/	.	.	.	4D/	-ae	.	.	4d\	-ae	.	.	.	.
=44	=44	=44	=44	=44	=44	=44	=44	=44	=44	=44	=44	=44	=44
4r	.	2.ryy	2.ryy	4F#\	dul-	2.ryy	.	4a\	dul-	2.ryy	.	.	.
4r	.	.	.	4D\	-cis	.	.	4f#\	-cis	.	.	.	.
16D/LL	.	.	.	4r	.	.	.	4r	.	.	.	.	.
16C#/	.	.	.	.	.	.	.	.	.	.	.	.	.
16D/	.	.	.	.	.	.	.	.	.	.	.	.	.
16AA/JJ	.	.	.	.	.	.	.	.	.	.	.	.	.
=45	=45	=45	=45	=45	=45	=45	=45	=45	=45	=45	=45	=45	=45
*	*	*	*	*	*ij	*	*	*	*	*	*	*	*
4r	.	2.ryy	2.ryy	4E\	dul-	2.ryy	.	4g\	dul-	2.ryy	.	.	.
4r	.	.	.	4C#/	-cis	.	.	4e\	-cis	.	.	.	.
16E/LL	.	.	.	4r	.	.	.	4r	.	.	.	.	.
16D/	.	.	.	.	.	.	.	.	.	.	.	.	.
16C#/	.	.	.	.	.	.	.	.	.	.	.	.	.
16AA/JJ	.	.	.	.	.	.	.	.	.	.	.	.	.
*	*	*	*	*	*Xij	*	*	*	*	*	*	*	*
!LO:LB:g=original	!	!	!	!	!	!	!	!	!	!	!	!	!
=46	=46	=46	=46	=46	=46	=46	=46	=46	=46	=46	=46	=46	=46
!	!	!	!	!	!	!	!	!	!	!	!	!LO:N:vis=00	!LO:N:vis=0
4D\	.	2.ryy	2.ryy	8D\L	Pa-	2.ryy	.	8f#\L	Pa-	2.ryy	.	0.r	1.r
.	.	.	.	8E\	.	.	.	8g\	.	.	.	.	.
4F#\	6	.	.	8D\	.	.	.	8f#\	.	.	.	.	.
.	.	.	.	8E\J	.	.	.	8g\J	.	.	.	.	.
4D\	.	.	.	4F#\	-rens	.	.	4a\	-rens	.	.	.	.
=47	=47	=47	=47	=47	=47	=47	=47	=47	=47	=47	=47	=47	=47
!!pagebreak:original
8G\L	.	2.ryy	2.ryy	8G\L	Cle-	2.ryy	.	8g\L	Cle-	2.ryy	.	.	.
8E\J	.	.	.	8E\J	.	.	.	8f#\J	.	.	.	.	.
4A\	.	.	.	4A\	-men-	.	.	4e\	-men-	.	.	.	.
.	4	.	.	.	.	.	.	.	.	.	.	.	.
4AA/	.	.	.	4AA/	-ti-	.	.	4e\	-ti-	.	.	.	.
.	3	.	.	.	.	.	.	.	.	.	.	.	.
=48	=48	=48	=48	=48	=48	=48	=48	=48	=48	=48	=48	=48	=48
4D/	.	2.ryy	2.ryy	4D/	-ae	2.ryy	.	4d\	-ae	2.ryy	.	.	4d\
4r	.	.	.	4r	.	.	.	4r	.	.	.	.	8d\L
.	.	.	.	.	.	.	.	.	.	.	.	.	8d\
4r	.	.	.	4r	.	.	.	4r	.	.	.	.	8d\
.	.	.	.	.	.	.	.	.	.	.	.	.	8d\J
!	!	!	!	!	!	!	!	!LO:LB:g=original	!	!	!	!	!
=49	=49	=49	=49	=49	=49	=49	=49	=49	=49	=49	=49	=49	=49
!	!	!	!	!LO:N:vis=00	!	!	!	!LO:N:vis=00	!	!	!	!	!
8E/L	.	2.ryy	2.ryy	0.r	.	2.ryy	.	0.r	.	2.ryy	.	.	4e\
8D/	.	.	.	.	.	.	.	.	.	.	.	.	.
8C#/	6	.	.	.	.	.	.	.	.	.	.	.	4r
8BB/	.	.	.	.	.	.	.	.	.	.	.	.	.
8C#/	6	.	.	.	.	.	.	.	.	.	.	.	4r
8AA/J	.	.	.	.	.	.	.	.	.	.	.	.	.
!	!	!	!	!	!	!	!	!	!	!	!	!LO:LB:g=original	!
=50	=50	=50	=50	=50	=50	=50	=50	=50	=50	=50	=50	=50	=50
4D/	.	2.ryy	2.ryy	.	.	2.ryy	.	.	.	2.ryy	.	4d\	4f#\
4r	.	.	.	.	.	.	.	.	.	.	.	8d\L	8f#\L
.	.	.	.	.	.	.	.	.	.	.	.	8d\	8f#\
4r	.	.	.	.	.	.	.	.	.	.	.	8d\	8f#\
.	.	.	.	.	.	.	.	.	.	.	.	8d\J	8f#\J
=51	=51	=51	=51	=51	=51	=51	=51	=51	=51	=51	=51	=51	=51
8E/L	.	2.ryy	2.ryy	.	.	2.ryy	.	.	.	2.ryy	.	4e\	4g\
8D/	.	.	.	.	.	.	.	.	.	.	.	.	.
8E/	.	.	.	.	.	.	.	.	.	.	.	4r	4r
8D/	.	.	.	.	.	.	.	.	.	.	.	.	.
8C#/	6	.	.	.	.	.	.	.	.	.	.	4r	4r
8AA/J	.	.	.	.	.	.	.	.	.	.	.	.	.
=52	=52	=52	=52	=52	=52	=52	=52	=52	=52	=52	=52	=52	=52
4D/	.	2.ryy	2.ryy	.	.	2.ryy	.	.	.	2.ryy	.	4f#\	4a\
4F#\	6	.	.	.	.	.	.	.	.	.	.	4f#\	4a\
4D/	.	.	.	.	.	.	.	.	.	.	.	4f#\	4a\
=53	=53	=53	=53	=53	=53	=53	=53	=53	=53	=53	=53	=53	=53
!	!	!	!	!LO:N:vis=0	!	!	!	!LO:N:vis=0	!	!	!	!	!
2D/	.	2.ryy	2.ryy	1.r	.	2.ryy	.	1.r	.	2.ryy	.	4.f#\	4.a\
.	.	.	.	.	.	.	.	.	.	.	.	8e\	8g\
4r	.	.	.	.	.	.	.	.	.	.	.	4d\	4f#\
=54	=54	=54	=54	=54	=54	=54	=54	=54	=54	=54	=54	=54	=54
8G\L	.	2.ryy	2.ryy	.	.	2.ryy	.	.	.	2.ryy	.	8e\L	8g\L
8E\J	.	.	.	.	.	.	.	.	.	.	.	8d\J	8f#\J
4A\	.	.	.	.	.	.	.	.	.	.	.	4A/	4e\
.	4	.	.	.	.	.	.	.	.	.	.	.	.
4AA/	.	.	.	.	.	.	.	.	.	.	.	4A/	4e\
.	3	.	.	.	.	.	.	.	.	.	.	.	.
=55	=55	=55	=55	=55	=55	=55	=55	=55	=55	=55	=55	=55	=55
!!pagebreak:original
4D/	.	2.ryy	2.ryy	4F#\	Tu	2.ryy	.	4a\	Tu	2.ryy	.	4F#/	4d\
4D/	.	.	.	4F#\	nos	.	.	4a\	nos	.	.	4r	4r
4D/	6 4	.	.	4G\	ab	.	.	4b\	ab	.	.	4r	4r
=56	=56	=56	=56	=56	=56	=56	=56	=56	=56	=56	=56	=56	=56
2D/	.	2.ryy	2.ryy	4.F#\	hos-	2.ryy	.	(4.a\	hos-	2.ryy	.	2.r	2.r
.	.	.	.	8E\	.	.	.	8g\)	.	.	.	.	.
4D/	.	.	.	4D/	-te	.	.	4f#\	-te	.	.	.	.
=57	=57	=57	=57	=57	=57	=57	=57	=57	=57	=57	=57	=57	=57
!	!	!	!	!LO:N:vis=0	!	!	!	!LO:N:vis=0	!	!	!	!	!
4D/	.	2.ryy	2.ryy	1.r	.	2.ryy	.	1.r	.	2.ryy	.	4f#\	4a\
4D/	.	.	.	.	.	.	.	.	.	.	.	4f#\	4a\
4D/	6 4	.	.	.	.	.	.	.	.	.	.	4g\	4b\
!LO:LB:g=original	!	!	!	!	!	!	!	!	!	!	!	!	!LO:LB:g=original
=58	=58	=58	=58	=58	=58	=58	=58	=58	=58	=58	=58	=58	=58
2D/	.	2.ryy	2.ryy	.	.	2.ryy	.	.	.	2.ryy	.	4.f#\	4.a\
.	.	.	.	.	.	.	.	.	.	.	.	8e\	8g\
4D/	.	.	.	.	.	.	.	.	.	.	.	4d\	4f#\
!	!	!	!	!LO:LB:g=original	!	!	!	!	!	!	!	!	!
=59	=59	=59	=59	=59	=59	=59	=59	=59	=59	=59	=59	=59	=59
!	!	!	!	!	!	!	!	!	!	!	!	!LO:N:vis=00	!LO:N:vis=00
4D/	.	2.ryy	2.ryy	4F#\	Tu	2.ryy	.	4a\	Tu	2.ryy	.	0.r	0.r
4D/	.	.	.	4F#\	nos	.	.	4a\	nos	.	.	.	.
4D/	6 4	.	.	4G\	ab	.	.	4b\	ab	.	.	.	.
=60	=60	=60	=60	=60	=60	=60	=60	=60	=60	=60	=60	=60	=60
2D/	.	2.ryy	2.ryy	(4.F#\	hos-	2.ryy	.	(4.a\	hos-	2.ryy	.	.	.
.	.	.	.	8E\)	.	.	.	8g\)	.	.	.	.	.
4D/	.	.	.	4D/	-te	.	.	4f#\	-te	.	.	.	.
=61	=61	=61	=61	=61	=61	=61	=61	=61	=61	=61	=61	=61	=61
8AA/L	.	2.ryy	2.ryy	4.AA/	pro-	2.ryy	.	4.e\	pro-	2.ryy	.	.	.
8BB/	.	.	.	.	.	.	.	.	.	.	.	.	.
8C#/	6	.	.	.	.	.	.	.	.	.	.	.	.
8BB/	.	.	.	8AA/	-te-	.	.	8e\	-te-	.	.	.	.
8C#/	6	.	.	4AA/	-ge	.	.	4e\	-ge	.	.	.	.
8AA/J	.	.	.	.	.	.	.	.	.	.	.	.	.
=62	=62	=62	=62	=62	=62	=62	=62	=62	=62	=62	=62	=62	=62
2D/	.	2.ryy	2.ryy	4F#\	et	2.ryy	.	4a\	et	2.ryy	.	.	.
.	.	.	.	8D\L	Mor-	.	.	8f#\L	Mor-	.	.	.	.
.	.	.	.	8E\J	.	.	.	8g\J	.	.	.	.	.
4r	.	.	.	4F#\	-tis	.	.	4a\	-tis	.	.	.	.
=63	=63	=63	=63	=63	=63	=63	=63	=63	=63	=63	=63	=63	=63
!!pagebreak:original
!	!	!	!	!	!	!	!	!	!	!	!	!LO:N:vis=00	!LO:N:vis=00
4E\	.	2.ryy	2.ryy	2E\	ho-	2.ryy	.	2g\	ho-	2.ryy	.	0.r	0.r
4C#/	.	.	.	.	.	.	.	.	.	.	.	.	.
4AA/	.	.	.	4D\	-ra	.	.	4f#\	-ra	.	.	.	.
=64	=64	=64	=64	=64	=64	=64	=64	=64	=64	=64	=64	=64	=64
4.A\	.	2.ryy	2.ryy	4.AA/	ſus-	2.ryy	.	4.e\	ſus-	2.ryy	.	.	.
8AA/	.	.	.	8AA/	-ci-	.	.	8e\	-ci-	.	.	.	.
4AA/	.	.	.	4AA/	-pe	.	.	4e\	-pe	.	.	.	.
=65	=65	=65	=65	=65	=65	=65	=65	=65	=65	=65	=65	=65	=65
2D/	.	2.ryy	2.ryy	8F#\L	et	2.ryy	.	8a\L	et	2.ryy	.	.	.
.	.	.	.	8E\	.	.	.	8g\	.	.	.	.	.
.	.	.	.	8F#\	.	.	.	8a\	.	.	.	.	.
.	.	.	.	8G\	.	.	.	8b\	.	.	.	.	.
4r	.	.	.	8F#\	.	.	.	8a\	.	.	.	.	.
.	.	.	.	8G\J	.	.	.	8b\J	.	.	.	.	.
!	!	!	!	!	!	!	!	!LO:LB:g=original	!	!	!	!	!
=66	=66	=66	=66	=66	=66	=66	=66	=66	=66	=66	=66	=66	=66
*2\right	*	*	*	*	*	*	*	*	*	*	*	*	*
2E\	.	2.ryy	2.ryy	2E\	Mor-	2.ryy	.	2g\	mor-	2.ryy	.	.	.
4r	.	.	.	4E\	-tis	.	.	4g\	-tis	.	.	.	.
=67	=67	=67	=67	=67	=67	=67	=67	=67	=67	=67	=67	=67	=67
!	!	!	!	!	!	!	!	!	!	!	!	!LO:N:vis=00	!LO:N:vis=00
4E\	.	2.ryy	2.ryy	8E\L	ho-	2.ryy	.	8g\L	ho-	2.ryy	.	0.r	0.r
.	.	.	.	8D\	.	.	.	8f#\	.	.	.	.	.
4C#/	6	.	.	8E\	.	.	.	8g\	.	.	.	.	.
.	.	.	.	8F#\	.	.	.	8a\	.	.	.	.	.
4AA/	.	.	.	8E\	.	.	.	8g\	.	.	.	.	.
.	.	.	.	8F#\J	.	.	.	8a\J	.	.	.	.	.
!	!	!	!	!LO:LB:g=original	!	!	!	!	!	!	!	!	!
=68	=68	=68	=68	=68	=68	=68	=68	=68	=68	=68	=68	=68	=68
2D/	.	2.ryy	2.ryy	2E\	.	2.ryy	.	2g\	.	2.ryy	.	.	.
4D/	.	.	.	4E\	-ra	.	.	4g\	-ra	.	.	.	.
=69	=69	=69	=69	=69	=69	=69	=69	=69	=69	=69	=69	=69	=69
2D/	.	2.ryy	2.ryy	4.F#\	ſus-	2.ryy	.	4.a\	ſus-	2.ryy	.	.	.
.	.	.	.	8E\	-ci-	.	.	8g\	-ci-	.	.	.	.
4r	.	.	.	4D/	-pe	.	.	4f#\	-pe	.	.	.	.
!LO:LB:g=original	!	!	!	!	!	!	!	!	!	!	!	!	!
=70	=70	=70	=70	=70	=70	=70	=70	=70	=70	=70	=70	=70	=70
2E\	.	2.ryy	2.ryy	4.E\	ſus-	2.ryy	.	4.g\	ſus-	2.ryy	.	.	.
.	.	.	.	8D/	-ci-	.	.	8f#\	-ci-	.	.	.	.
4r	.	.	.	4C#/	-pe	.	.	4e\	-pe	.	.	.	.
=71	=71	=71	=71	=71	=71	=71	=71	=71	=71	=71	=71	=71	=71
!!pagebreak:original
!LO:N:vis=0	!	!	!	!LO:N:vis=0	!	!	!	!LO:N:vis=00	!	!	!	!	!
1.r	.	2.ryy	2.ryy	1.r	.	2.ryy	.	1.r	.	2.ryy	.	4.f#\	4.a\
.	.	.	.	.	.	.	.	.	.	.	.	8e\	8g\
.	.	.	.	.	.	.	.	.	.	.	.	4d\	4f#\
=72	=72	=72	=72	=72	=72	=72	=72	=72	=72	=72	=72	=72	=72
.	.	2.ryy	2.ryy	.	.	2.ryy	.	.	.	2.ryy	.	4.e\	4.g\
.	.	.	.	.	.	.	.	.	.	.	.	8d\	8f#\
.	.	.	.	.	.	.	.	.	.	.	.	4c#\	4e\
=73	=73	=73	=73	=73	=73	=73	=73	=73	=73	=73	=73	=73	=73
!	!	!	!	!	!	!	!	!	!	!	!	!LO:N:vis=00	!LO:N:vis=00
4D\	.	2.ryy	2.ryy	4F#\	et	2.ryy	.	4a\	et	2.ryy	.	0.r	0.r
4F#\	6	.	.	4F#\	Mor-	.	.	4a\	Mor-	.	.	.	.
4D\	.	.	.	4F#\	-tis	.	.	4a\	-tis	.	.	.	.
=74	=74	=74	=74	=74	=74	=74	=74	=74	=74	=74	=74	=74	=74
4E\	.	2.ryy	2.ryy	2E\	ho-	2.ryy	.	2g\	ho-	2.ryy	.	.	.
4C#/	.	.	.	.	.	.	.	.	.	.	.	.	.
!LO:SIC:s=:v:4D	!	!	!	!	!	!	!	!	!	!	!	!	!
4E\	.	.	.	4D/	-ra	.	.	4f#\	-ra	.	.	.	.
=75	=75	=75	=75	=75	=75	=75	=75	=75	=75	=75	=75	=75	=75
4A\	.	2.ryy	2.ryy	4.AA/	ſus-	2.ryy	.	4.e\	ſus-	2.ryy	.	.	.
8AA/L	.	.	.	.	.	.	.	.	.	.	.	.	.
8BB/	.	.	.	8AA/	-ci-	.	.	8e\	-ci-	.	.	.	.
8C#/	6	.	.	4AA/	-pe	.	.	4e\	-pe	.	.	.	.
8AA/J	.	.	.	.	.	.	.	.	.	.	.	.	.
=76	=76	=76	=76	=76	=76	=76	=76	=76	=76	=76	=76	=76	=76
8D\L	.	2.ryy	2.ryy	8D\L	ſus-	2.ryy	.	8f#\L	ſus-	2.ryy	.	.	.
!	!	!	!	!LO:SIC:s=:v:8G	!	!	!	!	!	!	!	!	!
8G\J	6 5	.	.	8F#\J	.	.	.	8g\J	.	.	.	.	.
!LO:TX:a:t=P:problem=mixed beam	!	!	!	!	!	!	!	!	!	!	!	!	!
8A\L	.	.	.	4A\	.	.	.	4e\	.	.	.	.	.
8AA/J	.	.	.	.	.	.	.	.	.	.	.	.	.
!LO:TX:a:t=P:problem=mixed beam	!	!	!	!	!	!	!	!	!	!	!	!	!
8A\L	.	.	.	4AA/	-ci-	.	.	4e\	-ci-	.	.	.	.
.	4	.	.	.	.	.	.	.	.	.	.	.	.
8AA/J	.	.	.	.	.	.	.	.	.	.	.	.	.
.	3	.	.	.	.	.	.	.	.	.	.	.	.
!	!	!	!	!	!	!	!	!	!	!	!	!LO:LB:g=original	!
=77	=77	=77	=77	=77	=77	=77	=77	=77	=77	=77	=77	=77	=77
!LO:TX:a:t=P:problem=mixed beam	!	!	!	!	!	!	!	!	!	!	!	!	!
8D/L	.	2.ryy	2.ryy	4D/	-pe	2.ryy	.	4d\	-pe	2.ryy	.	4d\	4f#\
8d\	.	.	.	.	.	.	.	.	.	.	.	.	.
8d\	.	.	.	4r	.	.	.	4r	.	.	.	4A/	4e\
8d\	.	.	.	.	.	.	.	.	.	.	.	.	.
8d\	.	.	.	4r	.	.	.	4r	.	.	.	4F#/	4d\
8d\J	.	.	.	.	.	.	.	.	.	.	.	.	.
!	!	!	!	!	!	!	!	!LO:LB:g=original	!	!	!	!	!
=78	=78	=78	=78	=78	=78	=78	=78	=78	=78	=78	=78	=78	=78
!!pagebreak:original
!	!	!	!	!	!	!	!	!	!	!	!	!LO:N:vis=0	!LO:N:vis=0
2D/	.	2.ryy	2.ryy	8D\L	Ma-	2.ryy	.	8f#\L	Ma-	2.ryy	.	1.r	1.r
.	.	.	.	8E\J	.	.	.	8g\J	.	.	.	.	.
.	.	.	.	4F#\	-ri-	.	.	4a\	-ri-	.	.	.	.
4r	.	.	.	4D\	-a	.	.	4f#\	-a	.	.	.	.
=79	=79	=79	=79	=79	=79	=79	=79	=79	=79	=79	=79	=79	=79
4E\	.	2.ryy	2.ryy	2E\	Ma-	2.ryy	.	2g\	Ma-	2.ryy	.	.	.
4C#/	6	.	.	.	.	.	.	.	.	.	.	.	.
4AA/	.	.	.	4F#\	-ter	.	.	4a\	-ter	.	.	.	.
!	!	!	!	!LO:LB:g=original	!	!	!	!	!	!	!	!	!
=80	=80	=80	=80	=80	=80	=80	=80	=80	=80	=80	=80	=80	=80
2D/	.	2.ryy	2.ryy	4.D/	gra-	2.ryy	.	4.f#\	gra-	2.ryy	.	2.r	2.r
.	.	.	.	8D/	-ti-	.	.	8e\	-ti-	.	.	.	.
4D/	.	.	.	4D/	-ae	.	.	4d\	-ae	.	.	.	.
=81	=81	=81	=81	=81	=81	=81	=81	=81	=81	=81	=81	=81	=81
!	!	!	!	!LO:N:vis=00	!	!	!	!LO:N:vis=00	!	!	!	!	!
2D/	.	2.ryy	2.ryy	0.r	.	2.ryy	.	0.r	.	2.ryy	.	8d\L	8f#\L
.	.	.	.	.	.	.	.	.	.	.	.	8e\J	8g\J
.	.	.	.	.	.	.	.	.	.	.	.	4f#\	4a\
4r	.	.	.	.	.	.	.	.	.	.	.	4d\	4f#\
!LO:LB:g=original	!	!	!	!	!	!	!	!	!	!	!	!	!
=82	=82	=82	=82	=82	=82	=82	=82	=82	=82	=82	=82	=82	=82
4E\	.	2.ryy	2.ryy	.	.	2.ryy	.	.	.	2.ryy	.	2g\	2g\
4C#/	6	.	.	.	.	.	.	.	.	.	.	.	.
4AA/	.	.	.	.	.	.	.	.	.	.	.	4a\	4a\
=83	=83	=83	=83	=83	=83	=83	=83	=83	=83	=83	=83	=83	=83
2D/	.	2.ryy	2.ryy	.	.	2.ryy	.	.	.	2.ryy	.	4.f#\	4.f#\
.	.	.	.	.	.	.	.	.	.	.	.	8e\	8e\
4D/	.	.	.	.	.	.	.	.	.	.	.	4d\	4d\
=84	=84	=84	=84	=84	=84	=84	=84	=84	=84	=84	=84	=84	=84
4r	.	2.ryy	2.ryy	.	.	2.ryy	.	.	.	2.ryy	.	4f#\	4a\
4r	.	.	.	.	.	.	.	.	.	.	.	4d\	4f#\
!LO:TX:a:t=P:problem=mixed beam	!	!	!	!	!	!	!	!	!	!	!	!	!
16d\LL	.	.	.	.	.	.	.	.	.	.	.	4r	4r
16c#\	.	.	.	.	.	.	.	.	.	.	.	.	.
16d\	.	.	.	.	.	.	.	.	.	.	.	.	.
16D/JJ	.	.	.	.	.	.	.	.	.	.	.	.	.
=85	=85	=85	=85	=85	=85	=85	=85	=85	=85	=85	=85	=85	=85
!	!	!	!	!LO:N:vis=0	!	!	!	!LO:N:vis=0	!	!	!	!	!
4r	.	2.ryy	2.ryy	1.r	.	2.ryy	.	1.r	.	2.ryy	.	4e\	4g\
4r	.	.	.	.	.	.	.	.	.	.	.	4A/	4e\
16e\LL	.	.	.	.	.	.	.	.	.	.	.	4r	4r
16d\	.	.	.	.	.	.	.	.	.	.	.	.	.
16c#\	.	.	.	.	.	.	.	.	.	.	.	.	.
16A\JJ	.	.	.	.	.	.	.	.	.	.	.	.	.
=86	=86	=86	=86	=86	=86	=86	=86	=86	=86	=86	=86	=86	=86
!!pagebreak:original
8d\L	.	2.ryy	2.ryy	.	.	2.ryy	.	.	.	2.ryy	.	8d\L	8f#\L
8G\J	6 5	.	.	.	.	.	.	.	.	.	.	8e\J	8g\J
4A\	.	.	.	.	.	.	.	.	.	.	.	4A/	4f#\
.	4	.	.	.	.	.	.	.	.	.	.	.	.
4AA/	.	.	.	.	.	.	.	.	.	.	.	4A/	4e\
.	3	.	.	.	.	.	.	.	.	.	.	.	.
=87	=87	=87	=87	=87	=87	=87	=87	=87	=87	=87	=87	=87	=87
2.D/	.	2.ryy	2.ryy	2.r	.	2.ryy	.	2.r	.	2.ryy	.	4F#/	4d\
.	.	.	.	.	.	.	.	.	.	.	.	4r	4r
.	.	.	.	.	.	.	.	.	.	.	.	4r	4r
!	!	!	!	!	!	!	!	!	!	!LO:LB:g=original	!	!	!LO:LB:g=original
=88||	=88||	=88||	=88||	=88||	=88||	=88||	=88||	=88||	=88||	=88||	=88||	=88||	=88||
*k[f#c#g#]	*	*	*k[f#c#]	*	*	*	*	*k[f#c#]	*	*k[f#c#]	*	*	*
*A:	*	*	*	*	*	*A:	*	*	*	*	*	*	*
*M4/4	*	*M4/4	*M4/4	*	*	*M4/4	*	*M4/4	*	*M4/4	*	*M4/4	*M4/4
*met(c)	*	*met(c)	*met(c)	*	*	*met(c)	*	*met(c)	*	*met(c)	*	*met(c)	*met(c)
!LO:TX:a:t=Solo	!	!	!LO:SIC:o:s=:v:brak krzyżyka "gis"	!	!	!	!	!LO:TX:a:t=Jesu Tibi sit gloria \nTacet	!	!	!	!	!
!LO:TX:b:i:t=Jesu tibi ſit gloria	!	!LO:TX:b:i:t=Jesu Tibi ſit gloria	!LO:TX:b:i:t=Jesu tibi ſit gloria	!LO:TX:a:t=Jesu Tibi sit gloria \nTacet	!	!	!	!	!	!LO:SIC:o=:v:brak krzyżyka "gis"	!	!LO:TX:a:t=Jesu Tibi sit gloria \nTacet	!LO:TX:a:t=Jesu Tibi sit gloria \nTacet
4AA/	.	8r	8r	1ryy	.	0r	.	1ryy	.	0r	.	1ryy	1ryy
.	.	16a/LL	16cc#\LL	.	.	.	.	.	.	.	.	.	.
.	.	16b/JJ	16dd\JJ	.	.	.	.	.	.	.	.	.	.
4r	.	8cc#\L	8ee\L	.	.	.	.	.	.	.	.	.	.
.	.	8cc#\J	8ee\J	.	.	.	.	.	.	.	.	.	.
2r	.	8.cc#\L	8ee\L	.	.	.	.	.	.	.	.	.	.
.	.	.	8ff#\J	.	.	.	.	.	.	.	.	.	.
.	.	16dd\Jk	.	.	.	.	.	.	.	.	.	.	.
.	.	8cc#\L	8.ee\L	.	.	.	.	.	.	.	.	.	.
.	.	8b\J	.	.	.	.	.	.	.	.	.	.	.
.	.	.	16dd\Jk	.	.	.	.	.	.	.	.	.	.
=89	=89	=89	=89	=89	=89	=89	=89	=89	=89	=89	=89	=89	=89
8AA/L	.	16a\LL	16cc#\LL	1ryy	.	.	.	1ryy	.	.	.	1ryy	1ryy
.	.	16cc#\	16ee\	.	.	.	.	.	.	.	.	.	.
8BB/	.	16cc#\	16ee\	.	.	.	.	.	.	.	.	.	.
.	.	16cc#\JJ	16ee\JJ	.	.	.	.	.	.	.	.	.	.
8C#/	6	16ee\LL	16aa\LL	.	.	.	.	.	.	.	.	.	.
.	.	16cc#\	16ee\	.	.	.	.	.	.	.	.	.	.
8AA/J	.	16cc#\	16ee\	.	.	.	.	.	.	.	.	.	.
.	.	16cc#\JJ	16ee\JJ	.	.	.	.	.	.	.	.	.	.
*	*	*	*custos:ff#	*	*	*	*	*	*	*	*	*	*
!	!	!	!LO:LB:g=original	!	!	!	!	!	!	!	!	!	!
8BB/L	.	16dd\LL	16ff#\LL	.	.	.	.	.	.	.	.	.	.
.	.	16b\	16dd\	.	.	.	.	.	.	.	.	.	.
8AA/	.	16b\	16dd\	.	.	.	.	.	.	.	.	.	.
.	.	16b\JJ	16dd\JJ	.	.	.	.	.	.	.	.	.	.
8GG#/	6	16cc#\LL	16ee\LL	.	.	.	.	.	.	.	.	.	.
.	.	16a\	16cc#\	.	.	.	.	.	.	.	.	.	.
8EE/J	.	16a\	16cc#\	.	.	.	.	.	.	.	.	.	.
.	.	16a\JJ	16cc#\JJ	.	.	.	.	.	.	.	.	.	.
=90	=90	=90	=90	=90	=90	=90	=90	=90	=90	=90	=90	=90	=90
!!pagebreak:original
8AA/L	.	8a/L	8cc#\L	1ryy	.	2r	.	1ryy	.	2r	.	1ryy	1ryy
16C#/L	6	16g#X/L	16b\L	.	.	.	.	.	.	.	.	.	.
16D/JJ	6 5	16f#/JJ	16a\JJ	.	.	.	.	.	.	.	.	.	.
!LO:TX:a:t=P:problem=mixed beam	!	!	!	!	!	!	!	!	!	!	!	!	!
8E\L	5 4	8.e/L	8.g#X/L	.	.	.	.	.	.	.	.	.	.
8EE/J	3	.	.	.	.	.	.	.	.	.	.	.	.
.	.	16e/Jk	16g#/Jk	.	.	.	.	.	.	.	.	.	.
4AA/	.	8a/L	8a/L	.	.	8r	.	.	.	8r	.	.	.
.	.	8a/	8a/	.	.	16A\LL	Je-	.	.	16cc#\LL	Je-	.	.
.	.	.	.	.	.	16B\JJ	.	.	.	16dd\JJ	.	.	.
4r	.	8a/	8a/	.	.	8c#\	-su	.	.	8ee\	-su	.	.
.	.	8a/J	8a/J	.	.	8c#\	Ti-	.	.	8ee\	Ti-	.	.
!LO:PB:g=original	!	!	!	!	!	!	!	!	!	!	!	!	!
=91	=91	=91	=91	=91	=91	=91	=91	=91	=91	=91	=91	=91	=91
!	!	!	!LO:SIC:o:s=:v:gruba belka, prawdopodobnie pierwotnie szesnastki poprawione na ósemki	!	!	!	!	!	!	!	!	!	!
2r	.	8e/L	8e/L	1ryy	.	8c#\	-bi	1ryy	.	8ee\	-bi	1ryy	1ryy
.	.	8e/	8e/	.	.	16B\LL	ſit	.	.	16dd\LL	ſit	.	.
.	.	.	.	.	.	16A\JJ	.	.	.	16cc#\JJ	.	.	.
!	!	!	!	!	!	!LO:LB:g=original	!	!	!	!	!	!	!
.	.	8e/	8e/	.	.	8B\	glo-	.	.	8dd\	glo-	.	.
.	.	8e/J	8e/J	.	.	16A/LL	-ri-	.	.	16cc#\LL	-ri-	.	.
.	.	.	.	.	.	16G#-/JJ	.	.	.	16b\JJ	.	.	.
!	!	!	!LO:TX:a:t=P:problem=mixed beam	!	!	!	!	!	!	!	!	!	!
8AA/L	.	16a\LL	16a/LL	.	.	4A/	-a	.	.	4cc#\	-a	.	.
.	.	16ee\	16aa\	.	.	.	.	.	.	.	.	.	.
8BB/	.	16ee\	16aa\	.	.	.	.	.	.	.	.	.	.
.	.	16ee\JJ	16aa\JJ	.	.	.	.	.	.	.	.	.	.
*	*	*custos:ee	*	*	*	*	*	*	*	*	*	*	*
!	!	!LO:LB:g=original	!	!	!	!	!	!	!	!	!	!	!
8C#/	6	16ee\LL	16aa\LL	.	.	4r	.	.	.	4r	.	.	.
.	.	16cc#\	16ee\	.	.	.	.	.	.	.	.	.	.
8AA/J	.	16cc#\	16ee\	.	.	.	.	.	.	.	.	.	.
.	.	16cc#\JJ	16ee\JJ	.	.	.	.	.	.	.	.	.	.
=92	=92	=92	=92	=92	=92	=92	=92	=92	=92	=92	=92	=92	=92
!!pagebreak:original
4D/	.	16dd\LL	16ff#\LL	1ryy	.	1r	.	1ryy	.	1r	.	1ryy	1ryy
.	.	(16cc#\	(16ee\	.	.	.	.	.	.	.	.	.	.
.	.	16cc#\	16ee\)	.	.	.	.	.	.	.	.	.	.
.	.	16b\JJ)	16dd\JJ	.	.	.	.	.	.	.	.	.	.
4r	.	16cc#\LL	(16ee\LL	.	.	.	.	.	.	.	.	.	.
.	.	(16b\	16dd\	.	.	.	.	.	.	.	.	.	.
.	.	16b\	16dd\)	.	.	.	.	.	.	.	.	.	.
.	.	16a\JJ)	16cc#\JJ	.	.	.	.	.	.	.	.	.	.
8D/L	.	8a/L	8cc#\L	.	.	.	.	.	.	.	.	.	.
8BB/J	.	8a/J	16b\L	.	.	.	.	.	.	.	.	.	.
.	.	.	16a\JJ	.	.	.	.	.	.	.	.	.	.
!LO:TX:a:t=P:problem=mixed beam	!	!	!	!	!	!	!	!	!	!	!	!	!
8E\L	.	8e/L	8g#X/L	.	.	.	.	.	.	.	.	.	.
.	4	.	.	.	.	.	.	.	.	.	.	.	.
8EE/J	#	8e/J	8g#/J	.	.	.	.	.	.	.	.	.	.
.	3	.	.	.	.	.	.	.	.	.	.	.	.
=93	=93	=93	=93	=93	=93	=93	=93	=93	=93	=93	=93	=93	=93
4AA/	.	4a/	4a/	1ryy	.	8r	.	1ryy	.	8r	.	1ryy	1ryy
.	.	.	.	.	.	16A\LL	Je-	.	.	16cc#\LL	Je-	.	.
.	.	.	.	.	.	16B\JJ	.	.	.	16dd\JJ	.	.	.
4r	.	4r	4r	.	.	8c#\	-su	.	.	8ee\	-su	.	.
.	.	.	.	.	.	8c#\	ti-	.	.	8ee\	ti-	.	.
8AA/L	.	2r	2r	.	.	8c#\	-bi	.	.	8ee\	-bi	.	.
8BB/J	.	.	.	.	.	16B\LL	sit	.	.	16dd\LL	sit	.	.
.	.	.	.	.	.	16A\JJ	.	.	.	16cc#\JJ	.	.	.
!LO:TX:a:t=P:problem=mixed beam	!	!	!	!	!	!	!	!	!	!	!	!	!
8BB/L	.	.	.	.	.	8B\	glo-	.	.	8dd\	glo-	.	.
8E\J	.	.	.	.	.	16A/LL	-ri-	.	.	16cc#\LL	-ri-	.	.
.	.	.	.	.	.	16G#-/JJ	.	.	.	16b\JJ	.	.	.
=94	=94	=94	=94	=94	=94	=94	=94	=94	=94	=94	=94	=94	=94
8AA/L	.	0r	0r	1ryy	.	4A/	-a	1ryy	.	4cc#\	-a	1ryy	1ryy
8BB/	.	.	.	.	.	.	.	.	.	.	.	.	.
8C#/	.	.	.	.	.	8r	.	.	.	8r	.	.	.
8E/J	.	.	.	.	.	8G#-/	Qui	.	.	8b\	Qui	.	.
8AA/L	.	.	.	.	.	8A/	na-	.	.	8cc#\	na-	.	.
8BB/	.	.	.	.	.	8G#-/	-tus	.	.	8b\	-tus	.	.
!	!	!	!	!	!	!	!	!	!	!LO:LB:g=original	!	!	!
8C#/	6	.	.	.	.	8A/	es	.	.	8cc#\	es	.	.
8AA/J	.	.	.	.	.	8B/	de	.	.	8dd\	de	.	.
=95	=95	=95	=95	=95	=95	=95	=95	=95	=95	=95	=95	=95	=95
!!pagebreak:original
8E\L	.	.	.	1ryy	.	8.G#-/	Vir-	1ryy	.	8.b\	Vir-	1ryy	1ryy
8F#\	.	.	.	.	.	.	.	.	.	.	.	.	.
.	.	.	.	.	.	16G#-/	-gi-	.	.	16b\	-gi-	.	.
8G#\	.	.	.	.	.	4G#-/	-ne	.	.	4b\	-ne	.	.
8E\J	.	.	.	.	.	.	.	.	.	.	.	.	.
!LO:TX:a:t=P:problem=mixed beam	!	!	!	!	!	!	!	!	!	!	!	!	!
8A\L	.	.	.	.	.	8r	.	.	.	8r	.	.	.
!	!	!	!	!	!	!LO:SIC:s=:v:16c#	!	!	!	!	!	!	!
8AA/J	.	.	.	.	.	16d\LL	Cum	.	.	16ee\LL	Cum	.	.
!	!	!	!	!	!	!LO:SIC:s=:v:16B	!	!	!	!	!	!	!
.	.	.	.	.	.	16c#\JJ	.	.	.	16dd\JJ	.	.	.
4r	.	.	.	.	.	8A\	Pa-	.	.	8cc#\	Pa-	.	.
.	.	.	.	.	.	8B\	-tre	.	.	8dd\	-tre	.	.
=96	=96	=96	=96	=96	=96	=96	=96	=96	=96	=96	=96	=96	=96
!LO:TX:a:t=P:problem=mixed beam	!	!	!	!	!	!	!	!	!	!	!	!	!
8A\L	.	2r	2r	1ryy	.	8c#\L	et	1ryy	.	8ee\L	et	1ryy	1ryy
8AA/J	.	.	.	.	.	8d\J	.	.	.	8ff#\J	.	.	.
4r	.	.	.	.	.	8c#\	al-	.	.	8ee\	al-	.	.
!	!	!	!	!	!	!LO:LB:g=original	!	!	!	!	!	!	!
.	.	.	.	.	.	8B\	-mo	.	.	8dd\	-mo	.	.
!	!	!	!LO:LB:g=original	!	!	!	!	!	!	!	!	!	!
!LO:TX:a:t=P:problem=mixed beam	!	!	!	!	!	!	!	!	!	!	!	!	!
8A\L	.	8r	8r	.	.	16A/	Spi-	.	.	8.cc#\	Spi-	.	.
.	.	.	.	.	.	16A/	-ri-	.	.	.	.	.	.
8AA/J	.	16cc#\LL	16ee\LL	.	.	8A/	-tu	.	.	.	.	.	.
.	.	16b\JJ	16dd\JJ	.	.	.	.	.	.	16b\	-ri-	.	.
4r	.	8a\L	8cc#\L	.	.	4r	.	.	.	8a\	-tu	.	.
.	.	8b\J	8dd\J	.	.	.	.	.	.	8r	.	.	.
=97	=97	=97	=97	=97	=97	=97	=97	=97	=97	=97	=97	=97	=97
!LO:TX:a:t=P:problem=mixed beam	!	!	!	!	!	!	!	!	!	!	!	!	!
8A\L	.	8cc#\L	8ee\L	1ryy	.	2r	.	1ryy	.	2r	.	1ryy	1ryy
8AA/J	.	8dd\J	8ff#\	.	.	.	.	.	.	.	.	.	.
4r	.	8cc#\L	8ee\	.	.	.	.	.	.	.	.	.	.
.	.	8b\J	8dd\J	.	.	.	.	.	.	.	.	.	.
!LO:TX:a:t=P:problem=mixed beam	!	!	!	!	!	!	!	!	!	!	!	!	!
8A\L	.	8a/L	16cc#\LL	.	.	8r	.	.	.	8r	.	.	.
.	.	.	16b\J	.	.	.	.	.	.	.	.	.	.
8AA/J	.	8a/J	8a\J	.	.	16c#\LL	Cum	.	.	16ee\LL	Cum	.	.
.	.	.	.	.	.	16B\JJ	.	.	.	16dd\JJ	.	.	.
4r	.	4r	4r	.	.	8A/	Pa-	.	.	8cc#\	Pa-	.	.
.	.	.	.	.	.	8B\	-tre	.	.	8dd\	-tre	.	.
=98	=98	=98	=98	=98	=98	=98	=98	=98	=98	=98	=98	=98	=98
!!pagebreak:original
!LO:TX:a:t=P:problem=mixed beam	!	!	!	!	!	!	!	!	!	!	!	!	!
8A\L	.	1r	1r	1ryy	.	8c#\L	et	1ryy	.	8ee\L	et	1ryy	1ryy
8AA/J	.	.	.	.	.	8d\J	.	.	.	8ff#\J	.	.	.
!LO:LB:g=original	!	!	!	!	!	!	!	!	!	!	!	!	!
4r	.	.	.	.	.	8c#\	al-	.	.	8ee\	al-	.	.
.	.	.	.	.	.	8B\	-mo	.	.	8dd\	-mo	.	.
!LO:TX:a:t=P:problem=mixed beam	!	!	!	!	!	!	!	!	!	!	!	!	!
8A\L	.	.	.	.	.	16A/	Spi-	.	.	16cc#\	Spi-	.	.
.	.	.	.	.	.	16A/	-ri-	.	.	16b\	-ri-	.	.
!	!	!	!	!	!	!	!	!	!	!LO:LB:g=original	!	!	!
16AA/L	.	.	.	.	.	8A/	-tu	.	.	8a\	-tu	.	.
16BB/J	.	.	.	.	.	.	.	.	.	.	.	.	.
8C#/	6	.	.	.	.	4r	.	.	.	8r	.	.	.
8AA/J	.	.	.	.	.	.	.	.	.	8ee\	in	.	.
=99	=99	=99	=99	=99	=99	=99	=99	=99	=99	=99	=99	=99	=99
0r	.	8a/L	8a/L	1ryy	.	2r	.	1ryy	.	4.ee\	ſem-	1ryy	1ryy
.	.	8b/	8b/	.	.	.	.	.	.	.	.	.	.
.	.	8cc#/	8cc#/	.	.	.	.	.	.	.	.	.	.
.	.	8a/J	8a/J	.	.	.	.	.	.	16dd\LL	.	.	.
.	.	.	.	.	.	.	.	.	.	16cc#\JJ	.	.	.
.	.	8b/L	8b/L	.	.	4r	.	.	.	4.dd\	.	.	.
.	.	8a/	8a/	.	.	.	.	.	.	.	.	.	.
!	!	!LO:SIC:s=:v:8g#	!LO:SIC:s=:v:8g#	!	!	!	!	!	!	!	!	!	!
.	.	8g/	8g/	.	.	8r	.	.	.	.	.	.	.
.	.	8e/J	8e/J	.	.	8e\	in	.	.	16cc#\LL	.	.	.
.	.	.	.	.	.	.	.	.	.	16b\JJ	.	.	.
=100	=100	=100	=100	=100	=100	=100	=100	=100	=100	=100	=100	=100	=100
.	.	8a/L	8a/L	1ryy	.	4.e\	ſem-	1ryy	.	4.cc#\	-pi-	1ryy	1ryy
.	.	8b/	8b/	.	.	.	.	.	.	.	.	.	.
.	.	8cc#/	8cc#/	.	.	.	.	.	.	.	.	.	.
.	.	8a/J	8a/J	.	.	16d\LL	-pi-	.	.	16b\LL	.	.	.
.	.	.	.	.	.	16c#\JJ	.	.	.	16a\JJ	.	.	.
*	*	*custos:b	*	*	*	*	*	*	*	*	*	*	*
!	!	!LO:LB:g=original	!	!	!	!	!	!	!	!	!	!	!
.	.	8b/L	8b/L	.	.	4.d\	-te-	.	.	4.b\	-ter-	.	.
.	.	8a/	8a/	.	.	.	.	.	.	.	.	.	.
!	!	!LO:SIC:s=:v:8g#	!LO:SIC:s=:v:8g#	!	!	!	!	!	!	!	!	!	!
.	.	8g/	8g/	.	.	.	.	.	.	.	.	.	.
.	.	8e/J	8e/J	.	.	16c#\LL	.	.	.	16a\LL	.	.	.
.	.	.	.	.	.	16B\JJ	.	.	.	16g\JJ	.	.	.
=101	=101	=101	=101	=101	=101	=101	=101	=101	=101	=101	=101	=101	=101
!!pagebreak:original
2r	.	8a/L	8a/L	1ryy	.	8A/	-na	1ryy	.	8cc#\	-na	1ryy	1ryy
.	.	8e/	8e/	.	.	8G#-/	in	.	.	8b\	in	.	.
.	.	8a/	8a/	.	.	8A/	ſem-	.	.	8cc#\	ſem-	.	.
.	.	8e/J	8e/J	.	.	8G#-/	-pi-	.	.	8b\	-pi-	.	.
!	!	!	!	!	!	!LO:LB:g=original	!	!	!	!	!	!	!
4r	.	8a/L	8a/L	.	.	8A/	-ter-	.	.	8cc#\	-ter-	.	.
.	.	8e/J	8e/J	.	.	8G#-/	-na	.	.	8b\	-na	.	.
!LO:TX:a:t=P:problem=mixed beam	!	!	!	!	!	!	!	!	!	!	!	!	!
8A\L	.	16ee\LL	16aa\LL	.	.	4r	.	.	.	4r	.	.	.
.	.	(16cc#\	(16ee\	.	.	.	.	.	.	.	.	.	.
8AA/J	.	16cc#\	16ee\	.	.	.	.	.	.	.	.	.	.
.	.	16a\JJ)	16cc#\JJ)	.	.	.	.	.	.	.	.	.	.
=102	=102	=102	=102	=102	=102	=102	=102	=102	=102	=102	=102	=102	=102
8AA/L	.	1r	1r	1ryy	.	4r	.	1ryy	.	4r	.	1ryy	1ryy
8BB/	.	.	.	.	.	.	.	.	.	.	.	.	.
8C#/	.	.	.	.	.	8r	.	.	.	8r	.	.	.
8E/J	.	.	.	.	.	8G#-/	in	.	.	8b\	in	.	.
4AA/	.	.	.	.	.	8A/	ſem-	.	.	8cc#\	ſem-	.	.
.	.	.	.	.	.	8B\	-pi-	.	.	8dd\	-pi-	.	.
4r	.	.	.	.	.	8c#\	-ter-	.	.	8ee\	-ter-	.	.
.	.	.	.	.	.	8d\	-na	.	.	8ff#\	-na	.	.
=103	=103	=103	=103	=103	=103	=103	=103	=103	=103	=103	=103	=103	=103
4AA/	.	4A/	4A/	1ryy	.	8.c#\	ſae-	1ryy	.	8.ee\	ſae-	1ryy	1ryy
.	.	.	.	.	.	16B\	-cu-	.	.	16dd\	-cu-	.	.
4r	.	4r	4r	.	.	8A/	-la	.	.	8cc#\	-la	.	.
.	.	.	.	.	.	8G#-/	in	.	.	8b\	in	.	.
!	!	!	!	!	!	!	!	!	!	!LO:LB:g=original	!	!	!
8r	.	2r	2r	.	.	8B\	ſem-	.	.	8dd\	ſem-	.	.
!	!	!	!	!	!	!LO:SIC:s=:v:8G#	!	!	!	!	!	!	!
8E\	.	.	.	.	.	8A/	-pi-	.	.	8b\	-pi-	.	.
!LO:N:vis=8	!	!	!	!	!	!	!	!	!	!	!	!	!
16B\LL	.	.	.	.	.	8B\	-ter-	.	.	8dd\	-ter-	.	.
16A\	.	.	.	.	.	.	.	.	.	.	.	.	.
16G#\	.	.	.	.	.	8c#\	-na	.	.	8ee\	-na	.	.
16E\JJ	.	.	.	.	.	.	.	.	.	.	.	.	.
!	!	!	!LO:LB:g=original	!	!	!	!	!	!	!	!	!	!
=104	=104	=104	=104	=104	=104	=104	=104	=104	=104	=104	=104	=104	=104
!!pagebreak:original
4AA/	.	1r	1r	1ryy	.	8A/	ſae-	1ryy	.	8cc#\	ſae-	1ryy	1ryy
.	.	.	.	.	.	16A/	-cu-	.	.	16cc#\	-cu-	.	.
.	.	.	.	.	.	16A/	-la	.	.	16cc#\	-la	.	.
4r	.	.	.	.	.	16A/LL	A-	.	.	16cc#\LL	A-	.	.
.	.	.	.	.	.	16G#/	.	.	.	16b\	.	.	.
.	.	.	.	.	.	16A/	.	.	.	16cc#\	.	.	.
.	.	.	.	.	.	16B/JJ	.	.	.	16dd\JJ	.	.	.
8AA/L	.	.	.	.	.	8c#\	.	.	.	8ee\	.	.	.
16C#/L	6	.	.	.	.	8A/	-men	.	.	(16dd\LL	-men	.	.
16D/JJ	6 5	.	.	.	.	.	.	.	.	16cc#\JJ)	.	.	.
!LO:TX:a:t=P:problem=mixed beam	!	!	!	!	!	!	!	!	!	!	!	!	!
8E\L	.	.	.	.	.	4G#/	A-	.	.	4b\	A-	.	.
.	4	.	.	.	.	.	.	.	.	.	.	.	.
8EE/J	.	.	.	.	.	.	.	.	.	.	.	.	.
.	3	.	.	.	.	.	.	.	.	.	.	.	.
=105	=105	=105	=105	=105	=105	=105	=105	=105	=105	=105	=105	=105	=105
4AA/	.	8r	8r	1ryy	.	4A/	-men.	1ryy	.	4a\	-men.	1ryy	1ryy
.	.	16a/LL	16cc#\LL	.	.	.	.	.	.	.	.	.	.
.	.	16b/JJ	16dd\JJ	.	.	.	.	.	.	.	.	.	.
4r	.	8cc#\L	8ee\L	.	.	4r	.	.	.	4r	.	.	.
.	.	8cc#\J	8ee\J	.	.	.	.	.	.	.	.	.	.
2r	.	8cc#\L	8ee\L	.	.	2r	.	.	.	2r	.	.	.
.	.	8dd\J	8ff#\J	.	.	.	.	.	.	.	.	.	.
.	.	8.cc#\L	8.ee\L	.	.	.	.	.	.	.	.	.	.
.	.	16b\Jk	16dd\Jk	.	.	.	.	.	.	.	.	.	.
=106	=106	=106	=106	=106	=106	=106	=106	=106	=106	=106	=106	=106	=106
4AA/	.	8a\L	8cc#\L	1ryy	.	0r	.	1ryy	.	0r	.	1ryy	1ryy
.	.	8dd\J	16aa\L	.	.	.	.	.	.	.	.	.	.
!	!	!	!LO:SIC:s=:v:16gg#	!	!	!	!	!	!	!	!	!	!
.	.	.	16gg\JJ	.	.	.	.	.	.	.	.	.	.
4D/	.	16dd\LL	16ff#\LL	.	.	.	.	.	.	.	.	.	.
.	.	16cc#\	16ee\	.	.	.	.	.	.	.	.	.	.
.	.	16b\	16dd\	.	.	.	.	.	.	.	.	.	.
.	.	16a\JJ	16cc#\JJ	.	.	.	.	.	.	.	.	.	.
8E\L	.	8g#X/L	8b/L	.	.	.	.	.	.	.	.	.	.
16E\L	.	8g#/J	8b/J	.	.	.	.	.	.	.	.	.	.
16F#\JJ	.	.	.	.	.	.	.	.	.	.	.	.	.
8G#\L	6	8r	8r	.	.	.	.	.	.	.	.	.	.
8E\J	.	8cc#\	8ee\	.	.	.	.	.	.	.	.	.	.
!LO:LB:g=original	!	!	!	!	!	!	!	!	!	!	!	!	!
=107	=107	=107	=107	=107	=107	=107	=107	=107	=107	=107	=107	=107	=107
!!pagebreak:original
4AA/	.	16cc#\LL	16ee\LL	1ryy	.	.	.	1ryy	.	.	.	1ryy	1ryy
.	.	16cc#\	16ee\	.	.	.	.	.	.	.	.	.	.
.	.	16cc#\	16ee\	.	.	.	.	.	.	.	.	.	.
.	.	16cc#\JJ	16ee\JJ	.	.	.	.	.	.	.	.	.	.
*	*	*custos:cc#	*	*	*	*	*	*	*	*	*	*	*
!	!	!LO:LB:g=original	!	!	!	!	!	!	!	!	!	!	!
8r	.	16cc#\LL	16ee\LL	.	.	.	.	.	.	.	.	.	.
.	.	16cc#\	16ee\	.	.	.	.	.	.	.	.	.	.
8AA/	.	16cc#\	16ee\	.	.	.	.	.	.	.	.	.	.
.	.	16cc#\JJ	16ee\JJ	.	.	.	.	.	.	.	.	.	.
4BB/	.	16b\LL	16dd\LL	.	.	.	.	.	.	.	.	.	.
.	.	16b\	16dd\	.	.	.	.	.	.	.	.	.	.
.	.	16b\	16dd\	.	.	.	.	.	.	.	.	.	.
.	.	16b\JJ	16dd\JJ	.	.	.	.	.	.	.	.	.	.
8r	.	16b\LL	16dd\LL	.	.	.	.	.	.	.	.	.	.
.	.	16b\	16dd\	.	.	.	.	.	.	.	.	.	.
8BB/	.	16b\	16dd\	.	.	.	.	.	.	.	.	.	.
.	.	16b\JJ	16dd\JJ	.	.	.	.	.	.	.	.	.	.
=108	=108	=108	=108	=108	=108	=108	=108	=108	=108	=108	=108	=108	=108
8AA/L	.	8a/L	8cc#\L	1ryy	.	1r	.	1ryy	.	1r	.	1ryy	1ryy
16C#/L	6	8a/J	16b\L	.	.	.	.	.	.	.	.	.	.
16D/JJ	6 5	.	16a\JJ	.	.	.	.	.	.	.	.	.	.
!LO:TX:a:t=P:problem=mixed beam	!	!	!LO:SIC:s=:v:8g#	!	!	!	!	!	!	!	!	!	!
8E\L	.	8g#X/L	8g/L	.	.	.	.	.	.	.	.	.	.
!	!	!	!LO:SIC:s=:v:8g#	!	!	!	!	!	!	!	!	!	!
.	4	.	.	.	.	.	.	.	.	.	.	.	.
8EE/J	#	8g#/J	8g/J	.	.	.	.	.	.	.	.	.	.
.	3	.	.	.	.	.	.	.	.	.	.	.	.
4AA/	.	4a/	4a/	.	.	.	.	.	.	.	.	.	.
4r	.	4r	4r	.	.	.	.	.	.	.	.	.	.
!	!	!	!LO:LB:g=original	!	!	!LO:LB:g=original	!	!	!	!	!	!LO:LB:g=original	!
=109||	=109||	=109||	=109||	=109||	=109||	=109||	=109||	=109||	=109||	=109||	=109||	=109||	=109||
!!pagebreak:original
*k[f#c#]	*	*	*k[f#c#]	*	*	*	*	*	*	*	*	*	*
*D:	*	*D:	*D:	*D:	*	*D:	*	*D:	*	*D:	*	*	*
*M12/8	*	*M12/8	*M12/8	*M12/8	*	*M12/8	*	*M12/8	*	*M12/8	*	*M12/8	*M12/8
!LO:TX:b:i:t=Jesu tibi sit gloria	!	!LO:TX:b:i:t=Jesu Tibi	!	!	!	!	!	!	!	!	!	!	!LO:TX:b:i:t=Jesu
8D/L	.	1.r	16d/LL	0.r	.	0.r	.	0.r	.	0.r	.	1.r	8D/L
.	.	.	16d/	.	.	.	.	.	.	.	.	.	.
8D/	.	.	16d/	.	.	.	.	.	.	.	.	.	8D/
.	.	.	16d/	.	.	.	.	.	.	.	.	.	.
8D/J	.	.	16d/	.	.	.	.	.	.	.	.	.	8D/J
.	.	.	16d/JJ	.	.	.	.	.	.	.	.	.	.
8D/L	.	.	16d/LL	.	.	.	.	.	.	.	.	.	8D/L
.	.	.	16d/	.	.	.	.	.	.	.	.	.	.
8D/	.	.	16d/	.	.	.	.	.	.	.	.	.	8D/
.	.	.	16d/	.	.	.	.	.	.	.	.	.	.
8D/J	.	.	16d/	.	.	.	.	.	.	.	.	.	8D/J
.	.	.	16d/JJ	.	.	.	.	.	.	.	.	.	.
8D/L	.	.	16f#/LL	.	.	.	.	.	.	.	.	.	8D/L
.	.	.	16d/	.	.	.	.	.	.	.	.	.	.
8D/	.	.	16d/	.	.	.	.	.	.	.	.	.	8D/
.	.	.	16d/	.	.	.	.	.	.	.	.	.	.
8D/J	.	.	16d/	.	.	.	.	.	.	.	.	.	8D/J
.	.	.	16d/JJ	.	.	.	.	.	.	.	.	.	.
8D/L	.	.	16f#/LL	.	.	.	.	.	.	.	.	.	8D/L
.	.	.	16d/	.	.	.	.	.	.	.	.	.	.
8D/	.	.	16d/	.	.	.	.	.	.	.	.	.	8D/
.	.	.	16d/	.	.	.	.	.	.	.	.	.	.
8D/J	.	.	16d/	.	.	.	.	.	.	.	.	.	8D/J
.	.	.	16d/JJ	.	.	.	.	.	.	.	.	.	.
=110	=110	=110	=110	=110	=110	=110	=110	=110	=110	=110	=110	=110	=110
!!pagebreak:original
8D/L	.	16d/LL	16f#/LL	.	.	.	.	.	.	.	.	8D/L	8F#/L
.	.	16d/	16f#/	.	.	.	.	.	.	.	.	.	.
8D/	.	16d/	16f#/	.	.	.	.	.	.	.	.	8D/	8F#/
.	.	16d/	16f#/	.	.	.	.	.	.	.	.	.	.
8D/J	.	16d/	16f#/	.	.	.	.	.	.	.	.	8D/J	8F#/J
.	.	16d/JJ	16f#/JJ	.	.	.	.	.	.	.	.	.	.
8D/L	.	16d/LL	16f#/LL	.	.	.	.	.	.	.	.	8D/L	8F#/L
.	.	16d/	16f#/	.	.	.	.	.	.	.	.	.	.
8D/	.	16d/	16f#/	.	.	.	.	.	.	.	.	8D/	8F#/
.	.	16d/	16f#/	.	.	.	.	.	.	.	.	.	.
8D/J	.	16d/	16f#/	.	.	.	.	.	.	.	.	8D/J	8F#/J
.	.	16d/JJ	16f#/JJ	.	.	.	.	.	.	.	.	.	.
8D/L	.	16f#/LL	16a/LL	.	.	.	.	.	.	.	.	8D/L	8F#/L
.	.	16d/	16f#/	.	.	.	.	.	.	.	.	.	.
8D/	.	16d/	16f#/	.	.	.	.	.	.	.	.	8D/	8F#/
.	.	16d/	16f#/	.	.	.	.	.	.	.	.	.	.
8D/J	.	16d/	16f#/	.	.	.	.	.	.	.	.	8D/J	8F#/J
.	.	16d/JJ	16f#/JJ	.	.	.	.	.	.	.	.	.	.
8D/L	.	16f#/LL	16a/LL	.	.	.	.	.	.	.	.	8D/L	8F#/L
.	.	16d/	16f#/	.	.	.	.	.	.	.	.	.	.
8D/	.	16d/	16f#/	.	.	.	.	.	.	.	.	8D/	8F#/
.	.	16d/	16f#/	.	.	.	.	.	.	.	.	.	.
8D/J	.	16d/	16f#/	.	.	.	.	.	.	.	.	8D/J	8F#/J
.	.	16d/JJ	16f#/JJ	.	.	.	.	.	.	.	.	.	.
=111	=111	=111	=111	=111	=111	=111	=111	=111	=111	=111	=111	=111	=111
!!pagebreak:original
8D\L	.	16ff#\LL	16ddd\LL	8D/	Je-	8d\	Je-	8a\	Je-	8ff#\	Je-	8d\L	8f#\L
.	.	16aa\	16ddd\	.	.	.	.	.	.	.	.	.	.
8F#\	6	16ff#\	16ddd\	8D/	-su	8d\	-su	8a\	-su	8ff#\	-su	8d\	8f#\
.	.	16aa\	16ddd\	.	.	.	.	.	.	.	.	.	.
8D\J	.	16ff#\	16ddd\	8D/	Ti-	8d\	Ti-	8a\	Ti-	8ff#\	Ti-	8d\J	8f#\J
.	.	16aa\JJ	16ddd\JJ	.	.	.	.	.	.	.	.	.	.
*	*	*custos:ee	*	*	*	*	*	*	*	*	*	*	*
!	!	!LO:LB:g=original	!	!	!	!	!	!	!	!	!	!	!
8AA/L	.	16ee\LL	16ccc#\LL	4AA/	-bi	4c#\	-bi	4a\	-bi	4ee\	-bi	8A/L	8e\L
.	.	16aa\	16ccc#\	.	.	.	.	.	.	.	.	.	.
8C#/	6	16ee\	16ccc#\	.	.	.	.	.	.	.	.	8A/	8e\
.	.	16aa\	16ccc#\	.	.	.	.	.	.	.	.	.	.
8AA/J	.	16ee\	16ccc#\	8AA/	ſit	8c#\	ſit	8a\	ſit	8ee\	ſit	8A/J	8e\J
.	.	16aa\JJ	16ccc#\JJ	.	.	.	.	.	.	.	.	.	.
*	*	*	*custos:ccc#	*	*	*	*	*	*	*	*	*	*
!LO:LB:g=original	!	!	!LO:LB:g=original	!	!	!	!	!	!	!	!	!	!
8AA/L	.	16ee\LL	16ccc#\LL	8AA/	glo-	8c#\	glo-	8a\	glo-	8ee\	glo-	8A/L	8e\L
.	.	16aa\	16ccc#\	.	.	.	.	.	.	.	.	.	.
8C#/	.	16ee\	16ccc#\	8AA/	-ri-	8c#\	-ri-	8a\	-ri-	8ee\	-ri-	8A/	8e\
.	.	16aa\	16ccc#\	.	.	.	.	.	.	.	.	.	.
8AA/J	.	16ee\	16ccc#\	8AA/	-a	8c#\	-a	8a\	-a	8ee\	-a	8A/J	8e\J
.	.	16aa\JJ	16ccc#\JJ	.	.	.	.	.	.	.	.	.	.
!	!	!	!	!	!	!	!	!	!	!LO:LB:g=original	!	!	!
4D/	.	8ff#\L	8ddd\L	8.D/	glo-	8.d\	glo-	8a\	glo-	8.ff#\	glo-	4d\	4f#\
!	!	!	!	!	!	!	!	!LO:LB:g=original	!	!	!	!	!
.	.	8ff#\	8ddd\	.	.	.	.	8a\	-ri-	.	.	.	.
.	.	.	.	16D/	-ri-	16d\	-ri-	.	.	16ff#\	-ri-	.	.
8D/	.	8ff#\J	8ddd\J	8D/	-a	8d\	-a	8a\	-a	8ff#\	-a	8d\	8f#\
=112	=112	=112	=112	=112	=112	=112	=112	=112	=112	=112	=112	=112	=112
!!pagebreak:original
8D/L	.	1.r	16d/LL	0.r	.	0.r	.	0.r	.	0.r	.	1.r	8D/L
.	.	.	16d/	.	.	.	.	.	.	.	.	.	.
8D/	.	.	16d/	.	.	.	.	.	.	.	.	.	8D/
.	.	.	16d/	.	.	.	.	.	.	.	.	.	.
8D/J	.	.	16d/	.	.	.	.	.	.	.	.	.	8D/J
.	.	.	16d/JJ	.	.	.	.	.	.	.	.	.	.
8D/L	.	.	16d/LL	.	.	.	.	.	.	.	.	.	8D/L
.	.	.	16d/	.	.	.	.	.	.	.	.	.	.
8D/	.	.	16d/	.	.	.	.	.	.	.	.	.	8D/
.	.	.	16d/	.	.	.	.	.	.	.	.	.	.
8D/J	.	.	16d/	.	.	.	.	.	.	.	.	.	8D/J
.	.	.	16d/JJ	.	.	.	.	.	.	.	.	.	.
8D/L	.	.	16f#/LL	.	.	.	.	.	.	.	.	.	8D/L
.	.	.	16d/	.	.	.	.	.	.	.	.	.	.
8D/	.	.	16d/	.	.	.	.	.	.	.	.	.	8D/
.	.	.	16d/	.	.	.	.	.	.	.	.	.	.
8D/J	.	.	16d/	.	.	.	.	.	.	.	.	.	8D/J
.	.	.	16d/JJ	.	.	.	.	.	.	.	.	.	.
!	!	!	!	!	!	!	!	!	!	!	!	!	!LO:LB:g=original
8D/L	.	.	16f#/LL	.	.	.	.	.	.	.	.	.	8D/L
.	.	.	16d/	.	.	.	.	.	.	.	.	.	.
8D/	.	.	16d/	.	.	.	.	.	.	.	.	.	8D/
.	.	.	16d/	.	.	.	.	.	.	.	.	.	.
8D/J	.	.	16d/	.	.	.	.	.	.	.	.	.	8D/J
.	.	.	16d/JJ	.	.	.	.	.	.	.	.	.	.
=113	=113	=113	=113	=113	=113	=113	=113	=113	=113	=113	=113	=113	=113
!!pagebreak:original
8D/L	.	16d/LL	16f#/LL	.	.	.	.	.	.	.	.	8D/L	8F#/L
.	.	16d/	16f#/	.	.	.	.	.	.	.	.	.	.
8D/	.	16d/	16f#/	.	.	.	.	.	.	.	.	8D/	8F#/
.	.	16d/	16f#/	.	.	.	.	.	.	.	.	.	.
8D/J	.	16d/	16f#/	.	.	.	.	.	.	.	.	8D/J	16F#/L
.	.	16d/JJ	16f#/JJ	.	.	.	.	.	.	.	.	.	16F#/JJ
8D/L	.	16d/LL	16f#/LL	.	.	.	.	.	.	.	.	8D/L	8F#/L
.	.	16d/	16f#/	.	.	.	.	.	.	.	.	.	.
8D/	.	16d/	16f#/	.	.	.	.	.	.	.	.	8D/	8F#/
.	.	16d/	16f#/	.	.	.	.	.	.	.	.	.	.
8D/J	.	16d/	16f#/	.	.	.	.	.	.	.	.	8D/J	8F#/J
.	.	16d/JJ	16f#/JJ	.	.	.	.	.	.	.	.	.	.
8D/L	.	16f#/LL	16a/LL	.	.	.	.	.	.	.	.	8D/L	8F#/L
.	.	16d/	16f#/	.	.	.	.	.	.	.	.	.	.
8D/	.	16d/	16f#/	.	.	.	.	.	.	.	.	8D/	8F#/
.	.	16d/	16f#/	.	.	.	.	.	.	.	.	.	.
8D/J	.	16d/	16f#/	.	.	.	.	.	.	.	.	8D/J	8F#/J
.	.	16d/JJ	16f#/JJ	.	.	.	.	.	.	.	.	.	.
8D/L	.	16f#/LL	16a/LL	.	.	.	.	.	.	.	.	8D/L	8F#/L
.	.	16d/	16f#/	.	.	.	.	.	.	.	.	.	.
8D/	.	16d/	16f#/	.	.	.	.	.	.	.	.	8D/	8F#/
.	.	16d/	16f#/	.	.	.	.	.	.	.	.	.	.
8D/J	.	16d/	16f#/	.	.	.	.	.	.	.	.	8D/J	8F#/J
.	.	16d/JJ	16f#/JJ	.	.	.	.	.	.	.	.	.	.
*	*	*	*custos:ddd	*	*	*	*	*	*	*	*	*	*
!	!	!	!LO:PB:g=original	!	!	!	!	!	!	!	!	!	!
=114	=114	=114	=114	=114	=114	=114	=114	=114	=114	=114	=114	=114	=114
!!pagebreak:original
8D\L	.	16ff#\LL	16ddd\LL	8D/	Je-	8d\	Je-	8f#\	Je-	8ff#\	Je-	8d\L	8f#\L
.	.	16aa\	16ddd\	.	.	.	.	.	.	.	.	.	.
8F#\	6	16ff#\	16ddd\	8D/	-su	8f#\	-su	8a\	-su	8ff#\	-su	8d\	8f#\
.	.	16aa\	16ddd\	.	.	.	.	.	.	.	.	.	.
8D\J	.	16ff#\	16ddd\	8D/	Ti-	8d\	Ti-	8f#\	Ti-	8ff#\	Ti-	8d\J	8f#\J
.	.	16aa\JJ	16ddd\JJ	.	.	.	.	.	.	.	.	.	.
!	!	!	!	!LO:LB:g=original	!	!	!	!	!	!	!	!	!
8AA/L	.	16ee\LL	16ccc#\LL	4AA/	-bi	4e\	-bi	4a\	-bi	4ee\	-bi	8A/L	8e\L
.	.	16aa\	16ccc#\	.	.	.	.	.	.	.	.	.	.
8C#/	6	16ee\	16ccc#\	.	.	.	.	.	.	.	.	8A/	8e\
.	.	16aa\	16ccc#\	.	.	.	.	.	.	.	.	.	.
8AA/J	.	16ee\	16ccc#\	8AA/	ſit	8c#\	ſit	8a\	ſit	8ee\	ſit	8A/J	8e\J
.	.	16aa\JJ	16ccc#\JJ	.	.	.	.	.	.	.	.	.	.
8AA/L	.	16ee\LL	16ccc#\LL	8AA/	glo-	8c#\	glo-	8a\	glo-	8ee\	glo-	8A/L	8e\L
.	.	16aa\	16ccc#\	.	.	.	.	.	.	.	.	.	.
8C#/	6	16ee\	16ccc#\	8AA/	-ri-	8c#\	-ri-	8a\	-ri-	8ee\	-ri-	8A/	8e\
.	.	16aa\	16ccc#\	.	.	.	.	.	.	.	.	.	.
8AA/J	.	16ee\	16ccc#\	8AA/	-a	8c#\	-a	8a\	-a	8ee\	-a	8A/J	8e\J
.	.	16aa\JJ	16ccc#\JJ	.	.	.	.	.	.	.	.	.	.
*	*	*custos:ff#	*	*	*	*	*	*	*	*	*	*	*
!	!	!LO:LB:g=original	!	!	!	!	!	!	!	!	!	!	!
4D/	.	8ff#\L	8ddd\L	8.D/	glo-	8.d\	glo-	8a\	glo-	8ff#\	glo-	4d\	4f#\
.	.	8ff#\	8ddd\	.	.	.	.	8a\	-ri-	8ff#\	-ri-	.	.
.	.	.	.	16D/	-ri-	16d\	-ri-	.	.	.	.	.	.
8D/	.	8ff#\J	8ddd\J	8D/	-a	8d\	-a	8a\	-a	8ff#\	-a	8d\	8f#\
!	!	!	!	!	!	!	!	!	!	!	!	!LO:LB:g=original	!
=115	=115	=115	=115	=115	=115	=115	=115	=115	=115	=115	=115	=115	=115
!!pagebreak:original
!	!	!	!	!	!	!LO:SIC:s=:v:8f#	!	!	!	!	!	!	!
16d\LL	.	16dd\LL	16ff#\LL	8D\	Qui	8g\	Je-	8f#\	qui	8dd\	Je-	8d\L	8f#\L
16D\	.	16dd\	16ff#\	.	.	.	.	.	.	.	.	.	.
16D\	.	16dd\	16ff#\	8F#\	Na-	8d\	-su	8a\	Na-	8ff#\	-su	8d\	8f#\
16E\	.	16dd\	16ff#\	.	.	.	.	.	.	.	.	.	.
16F#\	6	16dd\	16ff#\	8D\	-tus	8f#\	Ti-	8f#\	-tus	8dd\	Ti-	8d\J	8f#\J
16D\JJ	.	16dd\JJ	16ff#\JJ	.	.	.	.	.	.	.	.	.	.
!LO:LB:g=original	!	!	!	!	!	!LO:LB:g=original	!	!	!	!	!	!	!
!LO:TX:a:t=P:problem=mixed beam	!	!	!	!	!	!	!	!	!	!	!	!	!
16A\LL	.	16cc#\LL	16ee\LL	4A\	es	4e\	-bi	4e\	es	4cc#\	-bi	8A/L	8e\L
16AA/	.	16cc#\	16ee\	.	.	.	.	.	.	.	.	.	.
16AA/	.	16cc#\	16ee\	.	.	.	.	.	.	.	.	8A/	8e\
16BB/	.	16cc#\	16ee\	.	.	.	.	.	.	.	.	.	.
16C#/	6	16cc#\	16ee\	8A\	de	8c#\	sit	8e\	de	8ee\	ſit	8A/J	8e\J
16AA/JJ	.	16cc#\JJ	16ee\JJ	.	.	.	.	.	.	.	.	.	.
8.D/L	.	16dd\LL	16ff#\LL	8.d\	Vir-	8.d\	glo-	8.f#\	Vir-	8.ff#\	glo-	8d\L	8f#\L
.	.	16dd\	16ff#\	.	.	.	.	.	.	.	.	.	.
.	.	16dd\	16ff#\	.	.	.	.	.	.	.	.	8d\	8f#\
16D/K	.	16dd\	16ff#\	16d\	-gi-	16d\	-ri-	16f#\	-gi-	16ff#\	-ri-	.	.
8D/J	.	16dd\	16ff#\	8d\	-ne	8d\	-a	8f#\	-ne	8ff#\	-a	8d\J	8f#\J
.	.	16dd\JJ	16ff#\JJ	.	.	.	.	.	.	.	.	.	.
8r	.	16cc#\LL	16ee\LL	8r	.	8r	.	8r	.	8r	.	8A/L	8e\L
.	.	16cc#\	16ee\	.	.	.	.	.	.	.	.	.	.
8r	.	16cc#\	16ee\	8r	.	8r	.	8r	.	8r	.	8A/	8e\
.	.	16cc#\	16ee\	.	.	.	.	.	.	.	.	.	.
8AA/	.	16cc#\	16ee\	8A\	Cum	8c#\	Qui	8e\	Cum	8ee\	qui	8A/J	8e\J
.	.	16cc#\JJ	16ee\JJ	.	.	.	.	.	.	.	.	.	.
=116	=116	=116	=116	=116	=116	=116	=116	=116	=116	=116	=116	=116	=116
!!pagebreak:original
8D\L	.	16dd\LL	16ff#\LL	4D/	Pa-	4d\	Na-	4f#\	Pa-	4dd\	na-	8d\L	8f#\L
.	.	16ff#\	16aa\	.	.	.	.	.	.	.	.	.	.
8F#\	6	16dd\	16ff#\	.	.	.	.	.	.	.	.	8f#\	8a\
.	.	16ff#\	16aa\	.	.	.	.	.	.	.	.	.	.
8D\J	.	16dd\	16ff#\	8D/	-tre	8d\	-tus	8a\	-tre	8ff#\	-tus	8d\J	8f#\J
.	.	16ff#\JJ	16aa\JJ	.	.	.	.	.	.	.	.	.	.
!	!	!	!	!	!	!	!	!	!	!LO:LB:g=original	!	!	!
8AA/L	.	16cc#\LL	16ee\LL	4AA/	Pa-	4c#\	es	8e\	et	(8ee\	es	8A/L	8e\L
.	.	16cc#\	16ee\	.	.	.	.	.	.	.	.	.	.
8C#/	.	16cc#\	16ee\	.	.	.	.	8e\	al-	8cc#\)	.	8A/	8e\
.	.	16cc#\	16ee\	.	.	.	.	.	.	.	.	.	.
8AA/J	.	16cc#\	16ee\	8AA/	-tre	8c#\	de	8e\	-mo	8a\	de	8A/J	8e\J
.	.	16cc#\JJ	16ee\JJ	.	.	.	.	.	.	.	.	.	.
!	!	!	!	!	!	!	!	!LO:LB:g=original	!	!	!	!	!
!	!	!	!	!	!	!	!	!	!	!	!	!LO:TX:a:t=P:problem=mixed beam	!
8D/L	.	8dd\L	8ff#\L	8.D/	Spi-	8.d\	Vir-	8f#\	Spi-	8.ff#\	Vir-	8d\L	8f#\L
8D/	.	8dd\	8ff#\	.	.	.	.	8f#\	-ri-	.	.	8d\	8f#\
.	.	.	.	16D/	-ri-	16d\	-gi-	.	.	16ff#\	-gi-	.	.
8AA/J	.	8cc#\J	8ee\J	8AA/	-tu	8e\	-ne	8a\	-tu	8ee\	-ne	8A/J	8e\J
*	*	*	*custos:ff#	*	*	*	*	*	*	*	*	*	*
!	!	!	!LO:LB:g=original	!	!	!	!	!	!	!	!	!	!
8.D/L	.	8dd\L	8ff#\L	8.D/	Spi-	8.d\	Vir-	8a\	Spi-	8.ff#\	Vir-	4d\	4f#\
.	.	8dd\	8ff#\	.	.	.	.	8a\	-ri-	.	.	.	.
16D/K	.	.	.	8D/	-ri-	16d\	-gi-	.	.	16ff#\	-gi-	.	.
!	!	!	!LO:SIC:s=:v:8ff#	!	!	!	!	!	!	!	!	!	!
8D/J	.	8dd\J	8ee\J	.	.	8d\	-ne	8a\	-tu	8ff#\	-ne	8d\	8f#\
.	.	.	.	16D/	-tu	.	.	.	.	.	.	.	.
!	!	!	!	!LO:LB:g=original	!	!	!	!	!	!	!	!	!
=117	=117	=117	=117	=117	=117	=117	=117	=117	=117	=117	=117	=117	=117
!!pagebreak:original
4D/	.	16ff#\LL	16aa\LL	1.r	.	1.r	.	1.r	.	1.r	.	4f#\	4a\
.	.	16ff#\	16aa\	.	.	.	.	.	.	.	.	.	.
.	.	16ee\	16gg\	.	.	.	.	.	.	.	.	.	.
.	.	16ee\	16gg\	.	.	.	.	.	.	.	.	.	.
8r	.	16dd\	16ff#\	.	.	.	.	.	.	.	.	8r	8r
.	.	16dd\JJ	16ff#\JJ	.	.	.	.	.	.	.	.	.	.
*	*	*custos:ee	*	*	*	*	*	*	*	*	*	*	*
!	!	!LO:PB:g=original	!	!	!	!	!	!	!	!	!	!	!
4E\	.	16ee\LL	16gg\LL	.	.	.	.	.	.	.	.	4e\	4g\
.	.	16ee\	16gg\	.	.	.	.	.	.	.	.	.	.
.	.	16dd\	16ff#\	.	.	.	.	.	.	.	.	.	.
.	.	16dd\	16ff#\	.	.	.	.	.	.	.	.	.	.
8r	.	16cc#\	16ee\	.	.	.	.	.	.	.	.	8r	8r
.	.	16cc#\JJ	16ee\JJ	.	.	.	.	.	.	.	.	.	.
!	!	!	!	!	!	!	!	!	!	!	!	!	!LO:LB:g=original
4D/	.	16aa\LL	16ff#\LL	.	.	.	.	.	.	.	.	4a\	4f#\
.	.	16aa\	16ff#\	.	.	.	.	.	.	.	.	.	.
.	.	16gg\	16ee\	.	.	.	.	.	.	.	.	.	.
.	.	16gg\	16ee\	.	.	.	.	.	.	.	.	.	.
8r	.	16ff#\	16dd\	.	.	.	.	.	.	.	.	8r	8r
.	.	16ff#\JJ	16dd\JJ	.	.	.	.	.	.	.	.	.	.
4E\	.	16gg\LL	16ee\LL	.	.	.	.	.	.	.	.	4g\	4e\
.	.	16gg\	16ee\	.	.	.	.	.	.	.	.	.	.
.	.	16ff#\	16dd\	.	.	.	.	.	.	.	.	.	.
.	.	16ff#\	16dd\	.	.	.	.	.	.	.	.	.	.
8r	.	16ee\	16cc#\	.	.	.	.	.	.	.	.	8r	8r
.	.	16ee\JJ	16cc#\JJ	.	.	.	.	.	.	.	.	.	.
=118	=118	=118	=118	=118	=118	=118	=118	=118	=118	=118	=118	=118	=118
!!pagebreak:original
8D\L	.	16dd\LL	16dd\LL	8D/	Cum	8d\	Cum	8f#\	qui	8ff#\	Cum	8d\L	8f#\L
.	.	16dd\	16ff#\	.	.	.	.	.	.	.	.	.	.
8F#\	6	16dd\	16ff#\	8D/	Pa-	8d\	Pa-	8a\	Na-	8ff#\	Pa-	8d\	8f#\
.	.	16dd\	16ff#\	.	.	.	.	.	.	.	.	.	.
8D\J	.	16dd\	16ff#\	8D/	-tre	8d\	-tre	8f#\	-tus	8ff#\	-tre	8d\J	8f#\J
.	.	16dd\JJ	16ff#\JJ	.	.	.	.	.	.	.	.	.	.
8AA/L	.	16cc#\LL	16ee\LL	8AA/	et	8f#\	et	4e\	es	(8ee\	et	8A/L	8e\L
.	.	16cc#\	16ee\	.	.	.	.	.	.	.	.	.	.
!	!	!	!	!	!	!	!	!	!	!LO:TX:a:t=c	!	!	!
8C#/	6	16cc#\	16ee\	8AA/	al-	8e\	al-	.	.	8cc#\)	al-	8A/	8e\
.	.	16cc#\	16ee\	.	.	.	.	.	.	.	.	.	.
8AA/J	.	16cc#\	16ee\	8AA/	-mo	8e\	-mo	8e\	de	8a\	-mo	8A/J	8e\J
.	.	16cc#\JJ	16ee\JJ	.	.	.	.	.	.	.	.	.	.
8.D/L	.	8dd\L	8ff#\L	8.D/	Spi-	8.f#\	Spi-	8.f#\	Vir-	8.dd\	Spi-	8d\L	8f#\L
.	.	8dd\	8ff#\	.	.	.	.	.	.	.	.	8d\	8f#\
16D/K	.	.	.	16D/	-ri-	16f#\	-ri-	16f#\	-gi-	16dd\	-ri-	.	.
!	!	!	!	!	!	!LO:LB:g=original	!	!	!	!	!	!	!
8D/J	.	8dd\J	8ff#\J	8D/	-tu	8f#\	-tu	8f#\	-ne	8dd\	-tu	8d\J	8f#\J
8r	.	8r	4r	8r	.	8r	.	8r	.	8r	.	8r	8r
8r	.	8r	.	8r	.	8r	.	8r	.	8r	.	8r	8r
8AA/	.	8cc#\	8ee\	8AA/	in	8e\	in	8e\	in	8cc#\	in	8A/	8e\
!LO:LB:g=original	!	!	!	!	!	!	!	!	!	!	!	!	!
=119	=119	=119	=119	=119	=119	=119	=119	=119	=119	=119	=119	=119	=119
!	!	!	!	!	!	!LO:SIC:s=:v:4f#	!	!	!	!	!	!	!
4D/	.	8ff#\L	8ff#\L	4D/	ſem-	4g\	ſem-	4f#\	ſem-	4dd\	ſem-	8d\L	8f#\L
.	.	8dd\	8aa\	.	.	.	.	.	.	.	.	8d\	8f#\
8D/	.	8ff#\J	8ff#\J	8D/	-pi-	8d\	-pi-	8f#\	-pi-	8ff#\	-pi-	8d\J	8f#\J
4AA/	.	8cc#\L	8ee\L	4AA/	-ter-	4c#\	-ter-	4e\	-ter-	4ee\	-ter-	8A/L	8e\L
.	.	8ee\	8aa\	.	.	.	.	.	.	.	.	8A/	8e\
8AA/	.	8cc#\J	8ee\J	8AA/	-na	8c#\	-na	8e\	-na	8cc#\	-na	8A/J	8e\J
!	!	!	!	!	!	!	!	!	!	!	!	!LO:LB:g=original	!
!	!	!	!	!	!	!	!	!	!	!	!	!	!LO:SIC:o:s=:v:pion niejasny harmonicznie
8D/L	.	8ee\L	8aa\L	8D/L	ſae-	4d\	ſae-	8a\L	ſae-	8dd\L	ſae-	8e\L	8a\L
!	!	!	!	!LO:SIC:s=:v:8BB	!	!	!	!	!	!	!	!	!
8BB/	6	8dd\	8bb\	8BB/J	.	.	.	8b\J	.	8cc#\J	.	8e\	8b\
!	!	!	!	!	!	!	!	!	!	!	!	!	!LO:SIC:s=:v:8f#
!	!	!	!	!	!	!	!	!	!	!	!	!	!LO:SIC:o:s=:v:dopisek nieczytalny, ale prawdopodobnie oznacza brakujący krzyżyk
.	4	.	.	.	.	.	.	.	.	.	.	.	.
8E/J	.	8b\J	8gg#X\J	8E\	-cu-	8e\	-cu-	8g#X\	-cu-	8b\	-cu-	8e\J	8g\J
.	3	.	.	.	.	.	.	.	.	.	.	.	.
*	*	*custos:cc#	*	*	*	*	*	*	*	*	*	*	*
!	!	!LO:LB:g=original	!	!	!	!	!	!	!	!	!	!	!
4AA/	.	8cc#\L	8aa\L	4AA/	-la	4d\	-la	4a\	-la	4cc#\	-la	8e\	8a\
.	.	8a\	8ee\	.	.	.	.	.	.	.	.	8r	8r
8r	.	8a\J	8cc#\J	8r	.	8r	.	8r	.	8r	.	8r	8r
*	*	*	*custos:a	*	*	*	*	*	*	*	*	*	*
!	!	!	!LO:LB:g=original	!	!	!	!	!	!	!LO:LB:g=original	!	!	!
=120	=120	=120	=120	=120	=120	=120	=120	=120	=120	=120	=120	=120	=120
!!pagebreak:original
8AA/L	.	1.r	16a/LL	0.r	.	0.r	.	0.r	.	0.r	.	0.r	0.r
.	.	.	16a/	.	.	.	.	.	.	.	.	.	.
8AA/	.	.	16a/	.	.	.	.	.	.	.	.	.	.
.	.	.	16a/	.	.	.	.	.	.	.	.	.	.
8AA/J	.	.	16a/	.	.	.	.	.	.	.	.	.	.
.	.	.	16a/JJ	.	.	.	.	.	.	.	.	.	.
8AA/L	.	.	16a/LL	.	.	.	.	.	.	.	.	.	.
.	.	.	16a/	.	.	.	.	.	.	.	.	.	.
8AA/	.	.	16a/	.	.	.	.	.	.	.	.	.	.
.	.	.	16a/	.	.	.	.	.	.	.	.	.	.
8AA/J	.	.	16a/	.	.	.	.	.	.	.	.	.	.
.	.	.	16a/JJ	.	.	.	.	.	.	.	.	.	.
8AA/L	.	.	16cc#\LL	.	.	.	.	.	.	.	.	.	.
.	.	.	16a\	.	.	.	.	.	.	.	.	.	.
8AA/	.	.	16a\	.	.	.	.	.	.	.	.	.	.
.	.	.	16a\	.	.	.	.	.	.	.	.	.	.
8AA/J	.	.	16a\	.	.	.	.	.	.	.	.	.	.
.	.	.	16a\JJ	.	.	.	.	.	.	.	.	.	.
8AA/L	.	.	16cc#\LL	.	.	.	.	.	.	.	.	.	.
.	.	.	16a\	.	.	.	.	.	.	.	.	.	.
8AA/	.	.	16a\	.	.	.	.	.	.	.	.	.	.
.	.	.	16a\	.	.	.	.	.	.	.	.	.	.
8AA/J	.	.	16a\	.	.	.	.	.	.	.	.	.	.
.	.	.	16a\JJ	.	.	.	.	.	.	.	.	.	.
=121	=121	=121	=121	=121	=121	=121	=121	=121	=121	=121	=121	=121	=121
!!pagebreak:original
4AA/	.	16a/LL	16cc#\LL	.	.	.	.	.	.	.	.	.	.
.	.	16a/	16cc#\	.	.	.	.	.	.	.	.	.	.
.	.	16a/	16cc#\	.	.	.	.	.	.	.	.	.	.
.	.	16a/	16cc#\	.	.	.	.	.	.	.	.	.	.
8r	.	16a/	16cc#\	.	.	.	.	.	.	.	.	.	.
.	.	16a/JJ	16cc#\JJ	.	.	.	.	.	.	.	.	.	.
4AA/	.	16a/LL	16cc#\LL	.	.	.	.	.	.	.	.	.	.
.	.	16a/	16cc#\	.	.	.	.	.	.	.	.	.	.
.	.	16a/	16cc#\	.	.	.	.	.	.	.	.	.	.
.	.	16a/	16cc#\	.	.	.	.	.	.	.	.	.	.
8r	.	16a/	16cc#\	.	.	.	.	.	.	.	.	.	.
.	.	16a/JJ	16cc#\JJ	.	.	.	.	.	.	.	.	.	.
4AA/	.	16cc#\LL	16ee\LL	.	.	.	.	.	.	.	.	.	.
.	.	16a\	16cc#\	.	.	.	.	.	.	.	.	.	.
.	.	16a\	16cc#\	.	.	.	.	.	.	.	.	.	.
.	.	16a\	16cc#\	.	.	.	.	.	.	.	.	.	.
8r	.	16a\	16cc#\	.	.	.	.	.	.	.	.	.	.
.	.	16a\JJ	16cc#\JJ	.	.	.	.	.	.	.	.	.	.
4AA/	.	16cc#\LL	16ee\LL	.	.	.	.	.	.	.	.	.	.
.	.	16a\	16cc#\	.	.	.	.	.	.	.	.	.	.
.	.	16a\	16cc#\	.	.	.	.	.	.	.	.	.	.
.	.	16a\	16cc#\	.	.	.	.	.	.	.	.	.	.
8r	.	16a\	16cc#\	.	.	.	.	.	.	.	.	.	.
.	.	16a\JJ	16cc#\JJ	.	.	.	.	.	.	.	.	.	.
!	!	!	!	!	!	!	!	!LO:PB:g=original	!	!	!	!	!
=122	=122	=122	=122	=122	=122	=122	=122	=122	=122	=122	=122	=122	=122
!!pagebreak:original
!	!	!	!	!	!	!	!	!	!	!	!	!	!LO:SIC:o:s=:v:w takcie nie zgadzają się piony harmoniczne
8AA/L	.	16cc#\LL	16aa\LL	8A\	Je-	8A/	Je-	8a\	Je-	8ee\	Je-	8A/L	8A/L
.	.	16cc#\	16aa\	.	.	.	.	.	.	.	.	.	.
8C#/	6	16cc#\	16aa\	8A\	-su	8A/	-su	8a\	-su	8ee\	-su	8A/	8A/
.	.	16cc#\	16aa\	.	.	.	.	.	.	.	.	.	.
8AA/J	.	16cc#\	16aa\	8A\	Ti-	8A/	Ti-	8a\	Ti-	8ee\	Ti-	8A/J	8A/J
.	.	16cc#\JJ	16aa\JJ	.	.	.	.	.	.	.	.	.	.
8E\L	.	16b\LL	16gg#X\LL	4E\	-bi	4A/	-bi	8g#X\	-bi	8ee\	-bi	8A/L	8A/L
.	.	16b\	16gg#\	.	.	.	.	.	.	.	.	.	.
8G#X\	6	16b\	16gg#\	.	.	.	.	4g#\	ſit	4ee\	ſit	8A/	8A/
.	.	16b\	16gg#\	.	.	.	.	.	.	.	.	.	.
8E\J	.	16b\	16gg#\	8E\	sit	8A/	sit	.	.	.	.	8A/J	8A/J
.	.	16b\JJ	16gg#\JJ	.	.	.	.	.	.	.	.	.	.
!	!	!	!LO:LB:g=original	!LO:LB:g=original	!	!	!	!	!	!	!	!	!
16E\LL	.	8b\L	16gg#X\LL	8E\	glo-	8A/	glo-	8g#\	glo-	8ee\	glo-	8A/L	8A/L
16F#\	.	.	16gg#\	.	.	.	.	.	.	.	.	.	.
16G#X\	6	8b\	16gg#\	8E\	-ri-	8A/	-ri-	8g#\	-ri-	8ee\	-ri-	8A/	8A/
16F#\	.	.	16gg#\	.	.	.	.	.	.	.	.	.	.
16G#\	6	8b\J	16gg#\	8E\	-a	8A/	-a	8g#\	-a	8ee\	-a	8A/J	8A/J
16E\JJ	.	.	16gg#\JJ	.	.	.	.	.	.	.	.	.	.
!LO:LB:g=original	!	!	!	!	!	!	!	!	!	!	!	!	!
!LO:TX:a:t=P:problem=mixed beam	!	!	!	!	!	!	!	!	!	!	!	!	!
8.A\L	.	8cc#\L	8aa\L	8.AA/	glo-	8.A/	glo-	8a\	glo-	8.ee\	glo-	8A/L	8A/L
.	.	8cc#\	8aa\	.	.	.	.	8a\	-ri-	.	.	8A/	8A/
16AA/K	.	.	.	16AA/	-ri-	16A/	-ri-	.	.	16ee\	-ri-	.	.
8AA/J	.	8cc#\J	8aa\J	8AA/	-a	8A/	-a	8a\	-a	8ee\	-a	8A/J	8A/J
!	!	!LO:LB:g=original	!	!	!	!	!	!	!	!	!	!	!
=123	=123	=123	=123	=123	=123	=123	=123	=123	=123	=123	=123	=123	=123
!!pagebreak:original
8AA/L	.	1.r	16a/LL	0.r	.	0.r	.	0.r	.	0.r	.	0.r	0.r
.	.	.	16a/	.	.	.	.	.	.	.	.	.	.
8AA/	.	.	16a/	.	.	.	.	.	.	.	.	.	.
.	.	.	16a/	.	.	.	.	.	.	.	.	.	.
8AA/J	.	.	16a/	.	.	.	.	.	.	.	.	.	.
.	.	.	16a/JJ	.	.	.	.	.	.	.	.	.	.
8AA/L	.	.	16a/LL	.	.	.	.	.	.	.	.	.	.
.	.	.	16a/	.	.	.	.	.	.	.	.	.	.
8AA/	.	.	16a/	.	.	.	.	.	.	.	.	.	.
.	.	.	16a/	.	.	.	.	.	.	.	.	.	.
8AA/J	.	.	16a/	.	.	.	.	.	.	.	.	.	.
.	.	.	16a/JJ	.	.	.	.	.	.	.	.	.	.
8AA/L	.	.	16cc#/LL	.	.	.	.	.	.	.	.	.	.
.	.	.	16a/	.	.	.	.	.	.	.	.	.	.
8AA/	.	.	16a/	.	.	.	.	.	.	.	.	.	.
.	.	.	16a/	.	.	.	.	.	.	.	.	.	.
8AA/J	.	.	16a/	.	.	.	.	.	.	.	.	.	.
.	.	.	16a/JJ	.	.	.	.	.	.	.	.	.	.
8AA/L	.	.	16cc#/LL	.	.	.	.	.	.	.	.	.	.
.	.	.	16a/	.	.	.	.	.	.	.	.	.	.
8AA/	.	.	16a/	.	.	.	.	.	.	.	.	.	.
.	.	.	16a/	.	.	.	.	.	.	.	.	.	.
8AA/J	.	.	16a/	.	.	.	.	.	.	.	.	.	.
.	.	.	16a/JJ	.	.	.	.	.	.	.	.	.	.
=124	=124	=124	=124	=124	=124	=124	=124	=124	=124	=124	=124	=124	=124
!!pagebreak:original
4AA/	.	16a/LL	16cc#\LL	.	.	.	.	.	.	.	.	.	.
.	.	16a/	16cc#\	.	.	.	.	.	.	.	.	.	.
.	.	16a/	16cc#\	.	.	.	.	.	.	.	.	.	.
.	.	16a/	16cc#\	.	.	.	.	.	.	.	.	.	.
8r	.	16a/	16cc#\	.	.	.	.	.	.	.	.	.	.
.	.	16a/JJ	16cc#\JJ	.	.	.	.	.	.	.	.	.	.
4AA/	.	16a/LL	16cc#\LL	.	.	.	.	.	.	.	.	.	.
.	.	16a/	16cc#\	.	.	.	.	.	.	.	.	.	.
.	.	16a/	16cc#\	.	.	.	.	.	.	.	.	.	.
.	.	16a/	16cc#\	.	.	.	.	.	.	.	.	.	.
8r	.	16a/	16cc#\	.	.	.	.	.	.	.	.	.	.
.	.	16a/JJ	16cc#\JJ	.	.	.	.	.	.	.	.	.	.
4AA/	.	16cc#\LL	16ee\LL	.	.	.	.	.	.	.	.	.	.
.	.	16a\	16cc#\	.	.	.	.	.	.	.	.	.	.
.	.	16a\	16cc#\	.	.	.	.	.	.	.	.	.	.
.	.	16a\	16cc#\	.	.	.	.	.	.	.	.	.	.
8r	.	16a\	16cc#\	.	.	.	.	.	.	.	.	.	.
.	.	16a\JJ	16cc#\JJ	.	.	.	.	.	.	.	.	.	.
4AA/	.	16cc#\LL	16ee\LL	.	.	.	.	.	.	.	.	.	.
.	.	16a\	16cc#\	.	.	.	.	.	.	.	.	.	.
.	.	16a\	16cc#\	.	.	.	.	.	.	.	.	.	.
.	.	16a\	16cc#\	.	.	.	.	.	.	.	.	.	.
8r	.	16a\	16cc#\	.	.	.	.	.	.	.	.	.	.
.	.	16a\JJ	16cc#\JJ	.	.	.	.	.	.	.	.	.	.
*	*	*	*custos:aa	*	*	*	*	*	*	*	*	*	*
!	!	!	!LO:LB:g=original	!	!	!	!	!	!	!	!	!	!
=125	=125	=125	=125	=125	=125	=125	=125	=125	=125	=125	=125	=125	=125
!!pagebreak:original
!	!	!	!	!	!	!	!	!	!	!	!	!	!LO:SIC:o:s=:v:w takcie nie zgadzają się piony harmoniczne
8AA/L	.	16cc#\LL	16aa\LL	8A\	Qui	8A/	Je-	8a\	qui	8ee\	Cum	8A/L	8A/L
.	.	16cc#\	16aa\	.	.	.	.	.	.	.	.	.	.
8C#/	6	16cc#\	16aa\	8A\	Na-	8A/	-su	8a\	na-	8cc#\	Pa-	8A/	8A/
.	.	16cc#\	16aa\	.	.	.	.	.	.	.	.	.	.
8AA/J	.	16cc#\	16aa\	8A\	-tus	8A/	Ti-	8a\	-tus	8ee\	-tre	8A/J	8A/J
.	.	16cc#\JJ	16aa\JJ	.	.	.	.	.	.	.	.	.	.
8E\L	.	16b\LL	16gg#X\LL	4E\	es	4A/	-bi	4g#X\	eſt	8ee\	et	8A/L	8A/L
.	.	16b\	16gg#\	.	.	.	.	.	.	.	.	.	.
8G#X\	6	16b\	16gg#\	.	.	.	.	.	.	8ee\	al-	8A/	8A/
.	.	16b\	16gg#\	.	.	.	.	.	.	.	.	.	.
8E\J	.	16b\	16gg#\	8E\	de	8A/	sit	8g#\	de	8ee\	-mo	8A/J	8A/J
.	.	16b\JJ	16gg#\JJ	.	.	.	.	.	.	.	.	.	.
!	!	!	!	!	!	!LO:LB:g=original	!	!	!	!	!	!	!
8E\L	.	16b\LL	16gg#\LL	8E\	Vir-	8.A/	glo-	8g#\	Vir-	8ee\	ſpi-	8A/L	8A/L
.	.	16b\	16gg#\	.	.	.	.	.	.	.	.	.	.
8G#X\	6	16b\	16gg#\	8E\	-gi-	.	.	8g#\	-gi-	8ee\	-ri-	8A/	8A/
.	.	16b\	16gg#\	.	.	16A/	-ri-	.	.	.	.	.	.
8E\J	.	16b\	16gg#\	8E\	-ne	8A/	-a	8g#\	-ne	8ee\	-tu	8A/J	8A/J
.	.	16b\JJ	16gg#\JJ	.	.	.	.	.	.	.	.	.	.
!	!	!	!	!	!	!	!	!	!	!	!	!	!LO:LB:g=original
!LO:TX:a:t=P:problem=mixed beam	!	!	!	!	!	!	!	!	!	!	!	!	!
8.A\L	.	8cc#\L	8aa\L	8.A\	Vir-	8.A/	glo-	8a\	Vir-	8ee\	ſpi-	8A/L	8A/L
.	.	8cc#\	8aa\	.	.	.	.	8a\	-gi-	8ee\	-ri-	8A/	8A/
16AA/K	.	.	.	16A\	-gi-	16A/	-ri-	.	.	.	.	.	.
8AA/J	.	8cc#\J	8aa\J	8A\	-ne	8A/	-a	8a\	-ne	8ee\	-tu	8A/J	8A/J
*	*	*custos:cc#	*	*	*	*	*	*	*	*	*	*	*
!	!	!LO:LB:g=original	!	!	!	!	!	!	!	!LO:PB:g=original	!	!	!
=126	=126	=126	=126	=126	=126	=126	=126	=126	=126	=126	=126	=126	=126
!!pagebreak:original
!	!	!	!	!	!	!	!	!	!	!	!	!	!LO:SIC:o:s=:v:w takcie nie zgadzają się piony harmoniczne
8AA/L	.	16cc#\LL	16aa\LL	8A\	Cum	8e\	Cum	8a\	Cum	8cc#\	Cum	8A/L	8A/L
.	.	16cc#\	16aa\	.	.	.	.	.	.	.	.	.	.
8C#/	6	16cc#\	16aa\	8A\	Pa-	8e\	Pa-	8a\	Pa-	8cc#\	Pa-	8A/	8A/
.	.	16cc#\	16aa\	.	.	.	.	.	.	.	.	.	.
8AA/J	.	16cc#\	16aa\	8A\	-tre	8e\	-tre	8a\	-tre	8cc#\	-tre	8A/J	8A/J
.	.	16cc#\JJ	16aa\JJ	.	.	.	.	.	.	.	.	.	.
8E\L	.	16b\LL	16gg#X\LL	8AA/	et	8e\	et	8g#X\	et	8b\	et	8A/L	8A/L
.	.	16b\	16gg#\	.	.	.	.	.	.	.	.	.	.
8G#X\	.	16b\	16gg#\	8C#/	al-	8e\	al-	8g#\	al-	8b\	al-	8A/	8A/
.	.	16b\	16gg#\	.	.	.	.	.	.	.	.	.	.
8E\J	.	16b\	16gg#\	8G#X\	-mo	8d\	-mo	8g#\	-mo	8b\	-mo	8A/J	8A/J
.	.	16b\JJ	16gg#\JJ	.	.	.	.	.	.	.	.	.	.
!LO:LB:g=original	!	!	!	!	!	!	!	!LO:LB:g=original	!	!	!	!	!
8AA/L	.	16cc#\LL	16aa\LL	8.A\	ſpi-	8.e\	ſpi-	8.a\	ſpi-	8.cc#\	ſpi-	8A/L	8A/L
.	.	16cc#\	16aa\	.	.	.	.	.	.	.	.	.	.
8AA/	.	16cc#\	16aa\	.	.	.	.	.	.	.	.	8A/	8A/
.	.	16cc#\	16aa\	16A\	-ri-	16e\	-ri-	16a\	-ri-	16cc#\	-ri-	.	.
8AA/J	.	16cc#\	16aa\	8A\	-tu	8e\	-tu	8a\	-tu	8cc#\	-tu	8A/J	8A/J
.	.	16cc#\JJ	16aa\JJ	.	.	.	.	.	.	.	.	.	.
!	!	!	!	!LO:PB:g=original	!	!	!	!	!	!	!	!	!
8r	.	8r	8r	8r	.	8r	.	8r	.	8r	.	8r	8r
8r	.	8r	8r	8r	.	8r	.	8r	.	8r	.	8r	8r
8E\	.	8cc#\	8ee\	8E\	in	8c#\	in	8g#X\	in	8b\	in	8A/	8A/
=127	=127	=127	=127	=127	=127	=127	=127	=127	=127	=127	=127	=127	=127
!!pagebreak:original
4AA/	.	4cc#\	4ee\	4A\	ſem-	4A\	ſem-	4a\	ſem-	4cc#\	ſem-	4A/	4A/
8r	.	8r	8r	8r	.	8B\	-pi-	8r	.	8dd\	-pi-	8r	8r
4AA/	.	4cc#\	4ee\	4A\	-pi-	4c#\	-ter-	4a\	-pi-	4ee\	-ter-	4A/	4A/
8r	.	8r	8r	8r	.	8d\	-na	8r	.	8ff#\	-na	8r	8r
4AA/	.	4cc#\	4ee\	4A\	-ter-	4c#\	ſae-	4a\	-ter-	4ee\	ſae-	4A/	4A/
8r	.	8r	8r	8r	.	8B\	-cu-	8r	.	8dd\	-cu-	8r	8r
4AA/	.	4cc#\	4ee\	4A\	-na	4A/	-la	4a\	-na	4cc#\	-la	4A/	4A/
!	!	!	!	!	!	!LO:SIC:s=:v:8G#	!	!	!	!	!	!	!
8r	.	8r	8r	8r	.	8G/	in	8r	.	8b\	in	8r	8r
!	!	!	!	!	!	!	!	!	!	!	!	!LO:LB:g=original	!
=128	=128	=128	=128	=128	=128	=128	=128	=128	=128	=128	=128	=128	=128
4AA/	.	4cc#\	4ee\	4A\	ſae-	4A\	ſem-	4a\	ſae-	4cc#\	ſem-	4A/	4A/
8r	.	8r	8r	8r	.	8B\	-pi-	8r	.	8dd\	-pi-	8r	8r
!	!	!	!LO:LB:g=original	!	!	!	!	!	!	!	!	!	!
4AA/	.	4cc#\	4ee\	4A\	-cu-	4c#\	-ter-	4a\	-cu-	4ee\	-ter-	4A/	4A/
8r	.	8r	8r	8r	.	8d\	-na	8r	.	8ff#\	-na	8r	8r
!	!	!	!	!	!	!LO:PB:g=original	!	!	!	!	!	!	!
4AA/	.	4cc#\	4ee\	4A\	-la	4c#\	ſae-	4a\	-la	4ee\	ſae-	4A/	4A/
8r	.	8r	8r	8r	.	8B\	-cu-	8r	.	8dd\	-cu-	8r	8r
4AA/	.	4cc#\	4ee\	4A\	in	4A/	-la	4a\	in	4cc#\	-la	4A/	4A/
!	!	!	!	!	!	!LO:SIC:s=:v:8G#	!	!	!	!	!	!	!
8r	.	8r	8r	8r	.	8G/	in	8r	.	8b\	in	8r	8r
!	!	!	!	!	!	!	!	!	!	!LO:LB:g=original	!	!	!
=129	=129	=129	=129	=129	=129	=129	=129	=129	=129	=129	=129	=129	=129
!!pagebreak:original
!	!	!	!	!	!	!	!	!	!	!	!	!	!LO:SIC:o:s=:v:w takcie nie zgadzają się piony harmoniczne
8AA/L	.	16cc#\LL	16ee\LL	4A\	ſem-	4A/	ſem-	4a\	ſem-	4cc#\	ſem-	8A/L	8A/L
.	.	16cc#\	16ee\	.	.	.	.	.	.	.	.	.	.
8C#/	6	16cc#\	16ee\	.	.	.	.	.	.	.	.	8A/	8A/
.	.	16cc#\	16ee\	.	.	.	.	.	.	.	.	.	.
8AA/J	.	16cc#\	16ee\	8A\	-pi-	8A/	-pi-	8a\	-pi-	8cc#\	-pi-	8A/J	8A/J
.	.	16cc#\JJ	16ee\JJ	.	.	.	.	.	.	.	.	.	.
!	!	!	!	!	!	!LO:SIC:s=:v:4G#	!	!	!	!	!	!	!
8E\L	.	16b\LL	16gg#X\LL	4E\	-ter-	4G/	-ter-	4g#X\	-ter-	4b\	-ter-	8A/L	8A/L
.	.	16b\	16gg#\	.	.	.	.	.	.	.	.	.	.
8G#X\	6	16b\	16gg#\	.	.	.	.	.	.	.	.	8A/	8A/
.	.	16b\	16gg#\	.	.	.	.	.	.	.	.	.	.
!	!	!	!	!	!	!LO:SIC:s=:v:8G#	!	!	!	!	!	!	!
8E\J	.	16b\	16gg#\	8E\	-na	8G/	-na	8g#\	-na	8b\	-na	8A/J	8A/J
.	.	16b\JJ	16gg#\JJ	.	.	.	.	.	.	.	.	.	.
*	*	*custos:cc#	*	*	*	*	*	*	*	*	*	*	*
!	!	!LO:LB:g=original	!	!	!	!	!	!	!	!	!	!	!
!LO:TX:a:t=P:problem=mixed beam	!	!	!	!	!	!	!	!	!	!	!	!	!
8A\L	.	8cc#\L	8aa\L	8.A\	ſae-	8A/	ſae-	8a\	ſae-	8cc#\	ſae-	4A/	4A/
8AA/	.	8cc#\	8aa\	.	.	8A/	-cu-	8a\	-cu-	8cc#\	-cu-	.	.
.	.	.	.	16A\	-cu-	.	.	.	.	.	.	.	.
8AA/J	.	8cc#\J	8aa\J	8A\	-la	8A/	-la	8a\	-la	8cc#\	-la	8A/	8A/
8r	.	4r	4r	8r	.	8r	.	8r	.	8r	.	8r	8r
8r	.	.	.	8r	.	8r	.	8r	.	8r	.	8r	8r
8AA/	.	8cc#\	8ee\	8A\	in	8c#\	in	8e\	in	8ee\	in	8A/	8e\
=130	=130	=130	=130	=130	=130	=130	=130	=130	=130	=130	=130	=130	=130
!!pagebreak:original
8D\L	.	16dd\LL	16ff#\LL	4d\	ſem-	4d\	ſem-	4f#\	ſem-	4ff#\	ſem-	8d\L	8f#\L
.	.	16ff#\	16aa\	.	.	.	.	.	.	.	.	.	.
8F#\	6	16ff#\	16aa\	.	.	.	.	.	.	.	.	8d\	8f#\
.	.	16ff#\	16aa\	.	.	.	.	.	.	.	.	.	.
8D\J	.	16ff#\	16aa\	8d\	-pi-	8d\	-pi-	8f#\	-pi-	8ff#\	-pi-	8d\J	8f#\J
.	.	16ff#\JJ	16aa\JJ	.	.	.	.	.	.	.	.	.	.
8AA/L	.	16cc#\LL	16ff#\LL	4A\	-ter-	4e\	-ter-	4e\	-ter-	4a\	-ter-	8A/L	8e\L
.	.	16cc#\	16aa\	.	.	.	.	.	.	.	.	.	.
8C#/	6	16cc#\	16ee\	.	.	.	.	.	.	.	.	8A/	8e\
.	.	16cc#\	16ee\	.	.	.	.	.	.	.	.	.	.
8AA/J	.	16cc#\	16ee\	8A\	-na	8e\	-na	8e\	-na	8a\	-na	8A/J	8e\J
.	.	16cc#\JJ	16ee\JJ	.	.	.	.	.	.	.	.	.	.
!LO:LB:g=original	!	!	!	!	!	!	!	!LO:LB:g=original	!	!	!	!	!
8D/L	.	8dd\L	8ff#\L	8.d\	ſae-	8.f#\	ſae-	8f#\	ſae-	8a\	ſae-	8d\L	8f#\L
8D/	.	8dd\	8ff#\	.	.	.	.	8f#\	-cu-	8a\	-cu-	8d\	8f#\
.	.	.	.	16d\	-cu-	16f#\	-cu-	.	.	.	.	.	.
8D/J	.	8dd\J	8ff#\J	8d\	-la	8f#\	-la	8f#\	-la	8a\	-la	8d\J	8f#\J
!	!	!	!	!LO:LB:g=original	!	!	!	!	!	!	!	!	!LO:PB:g=original
8r	.	4r	8r	8r	.	8r	.	8r	.	8r	.	8r	8r
8r	.	.	8r	8r	.	8r	.	8r	.	8r	.	8r	8r
*	*	*	*	*	*	*	*	*	*ij	*	*ij	*	*
8AA/	.	8cc#\	8ee\	8AA/	in	8e\	in	8e\	in	8a\	in	8A/	8e\
=131	=131	=131	=131	=131	=131	=131	=131	=131	=131	=131	=131	=131	=131
!!pagebreak:original
8D\L	.	8dd\L	8ff#\L	4D/	ſem-	4f#\	ſem-	4f#\	ſem-	4a\	ſem-	8d\L	8f#\L
8F#\	.	8ff#\	8aa\	.	.	.	.	.	.	.	.	8d\	8f#\
8D\J	.	8dd\J	8ff#\	8D/	-pi-	8f#\	-pi-	8f#\	-pi-	8a\	-pi-	8d\J	8f#\J
8AA/L	.	8cc#\L	8ee\	8AA/	-ter-	4e\	-ter-	4e\	-ter-	4a\	-ter-	8A/L	8e\L
8C#/	.	8ee\	8aa\	4AA/	-na	.	.	.	.	.	.	8A/	8e\
8AA/J	.	8cc#\J	8ee\J	.	.	8e\	-na	8e\	-na	8a\	-na	8A/J	8e\J
8D/L	.	8dd\L	8ff#\L	8.D/	ſae-	8.f#\	ſae-	8f#\	ſae-	8a\	ſae-	8d\L	8f#\L
8D/	.	8dd\	8ff#\	.	.	.	.	8f#\	-cu-	8a\	-cu-	8d\	8f#\
.	.	.	.	16D/	-cu-	16f#\	-cu-	.	.	.	.	.	.
!	!	!	!	!	!	!LO:LB:g=original	!	!	!	!	!	!	!
8D/J	.	8dd\J	8ff#\J	8D/	-la	8f#\	-la	8f#\	-la	8a\	-la	8d\J	8f#\J
*	*	*	*custos:ff#	*	*	*	*	*	*	*	*	*	*
!	!	!	!LO:LB:g=original	!	!	!	!	!	!	!	!	!	!
!	!	!LO:TX:a:t=P:problem=mixed beam	!LO:TX:a:t=P:problem=mixed beam	!	!	!	!	!	!	!	!	!LO:TX:a:t=P:problem=mixed beam	!LO:TX:a:t=P:problem=mixed beam
8D\L	.	8dd\L	8ff#\L	8r	.	8r	.	8r	.	8r	.	8d\L	8f#\L
8F#\	.	8d/	8f#/	8r	.	8r	.	8r	.	8r	.	8D/	8D/
!	!	!	!	!LO:N:vis=4	!	!LO:N:vis=4	!	!LO:N:vis=4	!	!	!	!	!
!	!	!	!	!	!	!	!	!	!	!LO:N:vis=4	!	!	!
8D\J	.	8d/J	8f#/J	8r	.	8r	.	8r	.	8r	.	8D/J	8D/J
*	*	*	*	*	*	*	*	*	*Xij	*	*Xij	*	*
!	!	!	!	!	!	!	!	!	!	!LO:LB:g=original	!	!	!
=132	=132	=132	=132	=132	=132	=132	=132	=132	=132	=132	=132	=132	=132
!!pagebreak:original
8D/L	.	1.r	16d/LL	0.r	.	0.r	.	0.r	.	0.r	.	8D/	8D/L
.	.	.	16d/	.	.	.	.	.	.	.	.	.	.
8D/	.	.	16d/	.	.	.	.	.	.	.	.	8r	8D/
.	.	.	16d/	.	.	.	.	.	.	.	.	.	.
8D/J	.	.	16d/	.	.	.	.	.	.	.	.	8r	8D/J
.	.	.	16d/JJ	.	.	.	.	.	.	.	.	.	.
8D/L	.	.	16d/LL	.	.	.	.	.	.	.	.	4r	8D/L
.	.	.	16d/	.	.	.	.	.	.	.	.	.	.
8D/	.	.	16d/	.	.	.	.	.	.	.	.	.	8D/
.	.	.	16d/	.	.	.	.	.	.	.	.	.	.
8D/J	.	.	16d/	.	.	.	.	.	.	.	.	8ryy	8D/J
.	.	.	16d/JJ	.	.	.	.	.	.	.	.	.	.
8D/L	.	.	16f#/LL	.	.	.	.	.	.	.	.	2r	8D/L
.	.	.	16d/	.	.	.	.	.	.	.	.	.	.
8D/	.	.	16d/	.	.	.	.	.	.	.	.	.	8D/
.	.	.	16d/	.	.	.	.	.	.	.	.	.	.
8D/J	.	.	16d/	.	.	.	.	.	.	.	.	.	8D/J
.	.	.	16d/JJ	.	.	.	.	.	.	.	.	.	.
8D/L	.	.	16f#/LL	.	.	.	.	.	.	.	.	.	8D/L
.	.	.	16d/	.	.	.	.	.	.	.	.	.	.
8D/	.	.	16d/	.	.	.	.	.	.	.	.	4ryy	8D/
.	.	.	16d/	.	.	.	.	.	.	.	.	.	.
8D/J	.	.	16d/	.	.	.	.	.	.	.	.	.	8D/J
.	.	.	16d/JJ	.	.	.	.	.	.	.	.	.	.
!	!	!	!	!	!	!	!	!	!	!	!	!LO:PB:g=original	!
=133	=133	=133	=133	=133	=133	=133	=133	=133	=133	=133	=133	=133	=133
!!pagebreak:original
8D/L	.	16d/LL	16f#/LL	.	.	.	.	.	.	.	.	8D/L	8F#/L
.	.	16d/	16f#/	.	.	.	.	.	.	.	.	.	.
8D/	.	16d/	16f#/	.	.	.	.	.	.	.	.	8D/	8F#/
.	.	16d/JJ	16f#/	.	.	.	.	.	.	.	.	.	.
*	*	*custos:d	*	*	*	*	*	*	*	*	*	*	*
!	!	!LO:LB:g=original	!	!	!	!	!	!	!	!	!	!	!
8D/J	.	16d/LL	16f#/	.	.	.	.	.	.	.	.	8D/J	8F#/J
.	.	16d/JJ	16f#/JJ	.	.	.	.	.	.	.	.	.	.
8D/L	.	16d/LL	16f#/LL	.	.	.	.	.	.	.	.	8D/L	8F#/L
.	.	16d/	16f#/	.	.	.	.	.	.	.	.	.	.
8D/	.	16d/	16f#/	.	.	.	.	.	.	.	.	8D/	8F#/
.	.	16d/	16f#/	.	.	.	.	.	.	.	.	.	.
8D/J	.	16d/	16f#/	.	.	.	.	.	.	.	.	8D/J	8F#/J
.	.	16d/JJ	16f#/JJ	.	.	.	.	.	.	.	.	.	.
8D/L	.	16f#/LL	16a/LL	.	.	.	.	.	.	.	.	8D/L	8F#/L
.	.	16d/	16f#/	.	.	.	.	.	.	.	.	.	.
8D/	.	16d/	16f#/	.	.	.	.	.	.	.	.	8D/	8F#/
.	.	16d/	16f#/	.	.	.	.	.	.	.	.	.	.
8D/J	.	16d/	16f#/	.	.	.	.	.	.	.	.	8D/J	8F#/J
.	.	16d/JJ	16f#/JJ	.	.	.	.	.	.	.	.	.	.
8D/L	.	16f#/LL	16a/LL	.	.	.	.	.	.	.	.	8D/L	8F#/L
.	.	16d/	16f#/	.	.	.	.	.	.	.	.	.	.
8D/	.	16d/	16f#/	.	.	.	.	.	.	.	.	8D/	8F#/
.	.	16d/	16f#/	.	.	.	.	.	.	.	.	.	.
8D/J	.	16d/	16f#/	.	.	.	.	.	.	.	.	8D/J	8F#/J
.	.	16d/JJ	16f#/JJ	.	.	.	.	.	.	.	.	.	.
!LO:LB:g=original	!	!	!	!	!	!	!	!	!	!	!	!	!
=134	=134	=134	=134	=134	=134	=134	=134	=134	=134	=134	=134	=134	=134
!!pagebreak:original
8D\L	.	16ff#\LL	16ddd\LL	8D/	Je-	8d\	Je-	8a\	Je-	8ff#\	Je-	8d\L	8f#\L
.	.	16ff#\	16ddd\	.	.	.	.	.	.	.	.	.	.
8F#\	6	16ff#\	16ddd\	8D/	-su	8d\	-su	8a\	-su	8ff#\	-su	8d\	8f#\
.	.	16ff#\	16ddd\	.	.	.	.	.	.	.	.	.	.
8D\J	.	16ff#\	16ddd\	8D/	Ti-	8d\	Ti-	8a\	Ti-	8ff#\	Ti-	8d\J	8f#\J
.	.	16ff#\JJ	16ddd\JJ	.	.	.	.	.	.	.	.	.	.
*	*	*	*custos:ccc#	*	*	*	*	*	*	*	*	*	*
!	!	!	!LO:LB:g=original	!	!	!	!	!	!	!	!	!	!
8AA/L	.	16ee\LL	16ccc#\LL	4AA/	-bi	4c#\	-bi	4a\	-bi	4ee\	-bi	8A/L	8e\L
.	.	16ee\	16ccc#\	.	.	.	.	.	.	.	.	.	.
8C#/	.	16ee\	16ccc#\	.	.	.	.	.	.	.	.	8A/	8e\
.	.	16ee\	16ccc#\	.	.	.	.	.	.	.	.	.	.
8AA/J	.	16ee\	16ccc#\	8AA/	ſit	8c#\	ſit	8a\	ſit	8ee\	ſit	8A/J	8e\J
.	.	16ee\JJ	16ccc#\JJ	.	.	.	.	.	.	.	.	.	.
8AA/L	.	16ee\LL	16ccc#\LL	8AA/	glo-	8c#\	glo-	8a\	glo-	8ee\	glo-	8A/L	8e\L
.	.	16ee\	16ccc#\	.	.	.	.	.	.	.	.	.	.
8C#/	6	16ee\	16ccc#\	8AA/	-ri-	8c#\	-ri-	8a\	-ri-	8ee\	-ri-	8A/	8e\
.	.	16ee\	16ccc#\	.	.	.	.	.	.	.	.	.	.
8AA/J	.	16ee\	16ccc#\	8AA/	-a	8c#\	-a	8a\	-a	8ee\	-a	8A/J	8e\J
.	.	16ee\JJ	16ccc#\JJ	.	.	.	.	.	.	.	.	.	.
4D/	.	8ff#\L	8ddd\L	8.D/	glo-	8.d\	glo-	8a\	glo-	8.ff#\	glo-	4d\	4f#\
.	.	8ff#\	8ddd\	.	.	.	.	8a\	-ri-	.	.	.	.
.	.	.	.	16D/	-ri-	16d\	-ri-	.	.	16ff#\	-ri-	.	.
8D/	.	8ff#\J	8ddd\J	8D/	-a	8d\	-a	8a\	-a	8ff#\	-a	8d\	8f#\
=135	=135	=135	=135	=135	=135	=135	=135	=135	=135	=135	=135	=135	=135
!!pagebreak:original
4D/	.	16ff#\LL	16aa\LL	2r	.	2r	.	2r	.	2r	.	4f#\	4a\
.	.	16ff#\	16aa\	.	.	.	.	.	.	.	.	.	.
.	.	16ee\	16gg\	.	.	.	.	.	.	.	.	.	.
.	.	16ee\	16gg\	.	.	.	.	.	.	.	.	.	.
8r	.	16dd\	16ff#\	.	.	.	.	.	.	.	.	8r	8r
.	.	16dd\JJ	16ff#\JJ	.	.	.	.	.	.	.	.	.	.
*	*	*custos:ee	*	*	*	*	*	*	*	*	*	*	*
!	!	!LO:LB:g=original	!	!	!	!	!	!	!	!	!	!	!
4E\	.	16ee\LL	16gg\LL	.	.	.	.	.	.	.	.	4e\	4g\
.	.	16ee\	16gg\	.	.	.	.	.	.	.	.	.	.
.	.	16dd\	16ff#\	4r	.	4r	.	4r	.	4r	.	.	.
.	.	16dd\	16ff#\	.	.	.	.	.	.	.	.	.	.
8r	.	16cc#\	16ee\	.	.	.	.	.	.	.	.	8r	8r
.	.	16cc#\JJ	16ee\JJ	.	.	.	.	.	.	.	.	.	.
!	!	!	!	!	!	!	!	!	!	!	!	!	!LO:LB:g=original
4D/	.	16aa\LL	16ff#\LL	4.ryy	.	4.ryy	.	4.ryy	.	4.ryy	.	4a\	4f#\
.	.	16aa\	16ff#\	.	.	.	.	.	.	.	.	.	.
.	.	16gg\	16ee\	.	.	.	.	.	.	.	.	.	.
.	.	16gg\	16ee\	.	.	.	.	.	.	.	.	.	.
8r	.	16ff#\	16dd\	.	.	.	.	.	.	.	.	8r	8r
.	.	16ff#\JJ	16dd\JJ	.	.	.	.	.	.	.	.	.	.
4E\	.	16gg\LL	16ee\LL	8r	.	8r	.	8r	.	8r	.	4g\	4e\
.	.	16gg\	16ee\	.	.	.	.	.	.	.	.	.	.
.	.	16ff#\	16dd\	8r	.	8r	.	8r	.	8r	.	.	.
.	.	16ff#\	16dd\	.	.	.	.	.	.	.	.	.	.
8r	.	16ee\	16cc#\	8AA/	in	8c#\	in	8e\	in	8ee\	in	8r	8r
.	.	16ee\JJ	32cc#\L	.	.	.	.	.	.	.	.	.	.
.	.	.	32cc#\JJJ	.	.	.	.	.	.	.	.	.	.
!	!	!	!	!	!	!	!	!LO:LB:g=original	!	!	!	!	!
=136	=136	=136	=136	=136	=136	=136	=136	=136	=136	=136	=136	=136	=136
!!pagebreak:original
4D/	.	4dd\	4aa\	4D\	ſem-	4d\	ſem-	4f#\	ſem-	4ff#\	ſem-	4d\	4f#\
8r	.	8r	8r	8E\	-pi-	8r	.	8g\	-pi-	8r	.	8r	8r
!	!	!	!	!LO:LB:g=original	!	!	!	!	!	!	!	!	!
4D/	.	4ff#\	4aa\	4F#\	-ter-	4d\	-pi-	4a\	-ter-	4ff#\	-pi-	4d\	4f#\
8r	.	8r	8r	8G\	-na	8r	.	8b\	-na	8r	.	8r	8r
4D/	.	4dd\	4aa\	4F#\	ſae-	4d\	-ter-	4a\	ſae-	4ff#\	-ter-	4d\	4f#\
8r	.	8r	8r	8E\	-cu-	8r	.	8g\	-cu-	8r	.	8r	8r
4D/	.	4dd\	4aa\	4D/	-la	4d\	-na	4f#\	-la	4ff#\	-na	4d\	4f#\
*	*	*	*	*	*ij	*	*	*	*	*	*	*	*
8r	.	8r	8r	8AA/	in	8r	.	8e\	in	8r	.	8r	8r
=137	=137	=137	=137	=137	=137	=137	=137	=137	=137	=137	=137	=137	=137
!	!	!	!	!	!	!	!	!	!	!	!	!LO:SIC:o:s=:v:brak jednego taktu	!
4D/	.	4ff#\	4aa\	4D\	ſem-	4d\	ſae-	4f#\	ſem-	4ff#\	ſae-	1.ryy	4f#\
8r	.	8r	8r	8E\	-pi-	8r	.	8g\	-pi-	8r	.	.	8r
!	!	!	!	!	!	!LO:LB:g=original	!	!	!	!	!	!	!
!LO:SIC:s=:v:4D	!	!	!	!	!	!	!	!	!	!	!	!	!
4C#/	.	4dd\	4aa\	4F#\	-ter-	4d\	-cu-	4a\	-ter-	4ff#\	-cu-	.	4f#\
8r	.	8r	8r	8G\	-na	8r	.	8b\	-na	8r	.	.	8r
!	!	!	!LO:LB:g=original	!	!	!	!	!	!	!	!	!	!
4D/	.	4dd\	4aa\	4F#\	ſae-	4d\	-la	4a\	ſae-	4ff#\	-la	.	4f#\
8r	.	8r	8r	8E\	-cu-	8r	.	8g\	-cu-	8r	.	.	8r
4D/	.	4dd\	4aa\	4D/	-la	4d\	in	4f#\	-la	4ff#\	in	.	4f#\
*	*	*	*	*	*Xij	*	*	*	*	*	*	*	*
8r	.	8r	8r	8AA/	in	8r	.	8e\	in	8r	.	.	8r
=138	=138	=138	=138	=138	=138	=138	=138	=138	=138	=138	=138	=138	=138
!!pagebreak:original
8D\L	.	8dd\L	8ff#\L	4D/	ſem-	4f#\	ſem-	4f#\	ſem-	4a\	ſem-	8d\L	8f#\L
8F#\	6	8dd\	8ff#\	.	.	.	.	.	.	.	.	8d\	8f#\
8D\J	.	8dd\J	8ff#\J	8D/	-pi-	8f#\	-pi-	8f#\	-pi-	8a\	-pi-	8d\J	8f#\J
*	*	*custos:cc#	*	*	*	*	*	*	*	*	*	*	*
!	!	!LO:LB:g=original	!	!	!	!	!	!	!	!LO:LB:g=original	!	!	!
8AA/L	.	8cc#\L	8ee\L	4AA/	-ter-	4e\	-ter-	4e\	-ter-	4a\	-ter-	8A/L	8e\L
8C#/	6	8cc#\	8ee\	.	.	.	.	.	.	.	.	8A/	8e\
8AA/J	.	8cc#\J	8ee\J	8AA/	-na	8e\	-na	8e\	-na	8a\	-na	8A/J	8e\J
!LO:LB:g=original	!	!	!	!	!	!	!	!	!	!	!	!	!
8D/L	.	8dd\L	8ff#\L	8D/	ſae-	8e\	ſae-	8f#\	ſae-	8a\	ſae-	8d\L	8f#\L
8D/	.	8dd\	8ff#\	8D/	-cu-	8e\	-cu-	8f#\	-cu-	8a\	-cu-	8d\	8f#\
8D/J	.	8dd\J	8ff#\J	8D/	-la	8e\	-la	8f#\	-la	8a\	-la	8d\J	8f#\J
!	!	!	!	!	!	!	!	!	!	!	!	!LO:TX:a:t=P:problem=mixed beam	!
8D/L	.	8dd\L	8ff#\L	4D/	A-	4f#\	A-	4f#\	A-	4a\	A-	8d\L	8f#\L
8D/	.	8dd\	8ff#\	.	.	.	.	.	.	.	.	8d\	8f#\
8AA/J	.	8cc#\J	8ee\J	8AA/	-men	8f#\	-men	8e\	-men	8a\	-men	8A/J	8e\J
!	!	!	!	!	!	!	!	!	!	!	!	!LO:LB:g=original	!
=139	=139	=139	=139	=139	=139	=139	=139	=139	=139	=139	=139	=139	=139
16D\LL	.	16dd\LL	16ff#\LL	4D/	A-	4d\	A-	4f#\	A-	4ff#\	A-	8d\L	4f#\
16E\	.	16ff#\	16aa\	.	.	.	.	.	.	.	.	.	.
16F#\	6	16ff#\	16aa\	.	.	.	.	.	.	.	.	8f#\	.
16E\	.	16ff#\	16aa\	.	.	.	.	.	.	.	.	.	.
16F#\	6	16ff#\	16aa\	8D/	-men	8d\	-men	8a\	-men	8ff#\	-men	8d\J	8a\
16D\JJ	.	16ff#\JJ	16aa\JJ	.	.	.	.	.	.	.	.	.	.
!	!	!	!	!	!	!	!	!LO:LB:g=original	!	!	!	!	!
!	!	!	!	!	!	!	!	!	!	!	!	!LO:TX:a:t=P:problem=mixed beam	!
*	*	*	*	*	*	*	*ij	*	*	*	*ij	*	*
8AA/L	.	16cc#\LL	16ee\LL	4AA/	A-	4c#\	A-	4e\	A-	4ee\	A-	8A/L	4e\
.	.	16ee\	16aa\	.	.	.	.	.	.	.	.	.	.
8C#/	6	16ee\	16aa\	.	.	.	.	.	.	.	.	8e\	.
.	.	16ee\	16aa\	.	.	.	.	.	.	.	.	.	.
8AA/J	.	16ee\	16aa\	8AA/	-men	8c#\	-men	8a\	-men	8ee\	-men	8A/J	8a\
.	.	16ee\JJ	16aa\JJ	.	.	.	.	.	.	.	.	.	.
*	*	*	*	*	*	*	*Xij	*	*	*	*Xij	*	*
!	!	!	!	!LO:LB:g=original	!	!	!	!	!	!	!	!	!
!	!	!	!	!	!	!	!	!LO:N:vis=4.	!	!	!	!LO:TX:a:t=P:problem=mixed beam	!
8D\L	.	8dd\L	8ff#\L	8D\L	A-	(4d\	A-	4a\	A-	(4ff#\	A-	8d\L	8f#\L
8F#\	6	8dd\	8ff#\	8F#\	.	.	.	.	.	.	.	8d\	8f#\
!	!	!	!	!	!	!	!	!LO:N:vis=8.	!	!	!	!	!
.	4	.	.	.	.	.	.	.	.	.	.	.	.
8A\J	.	8cc#\J	8ee\J	8A\J	.	8c#\)	.	8a\	.	8ee\)	.	8A/J	8e\J
.	3	.	.	.	.	.	.	.	.	.	.	.	.
4D/	.	4dd\	4ff#\	4D/	-men.	4d\	-men.	4a\	-men.	4ff#\	-men.	4d\	4f#\
8r	.	8r	8r	8r	.	8r	.	8r	.	8r	.	8r	8r
==	==	==	==	==	==	==	==	==	==	==	==	==	==
*-	*-	*-	*-	*-	*-	*-	*-	*-	*-	*-	*-	*-	*-
!!!system-decoration: [(s1,s2)][(s3,s4,s5,s6)][(s7,s8,s9)]
!!!RDF**kern: > = above
!!!RDF**kern: < = below
!!!EED: Leszek Kubiak
!!!EEV: 2020-10-13
!!!ENC: Andrzej Borzym
!!!END: 2020-04-19
